;FLAVOR:Marlin
;TIME:2630
;Filament used: 2.07597m
;Layer height: 0.28
;MINX:110.278
;MINY:108.75
;MINZ:0.28
;MAXX:189.731
;MAXY:191.1
;MAXZ:11.76
;Generated with Cura_SteamEngine 4.8.0
M140 S50
M105
M190 S50
M104 S200
M105
M109 S200
M82 ;absolute extrusion mode
M201 X500.00 Y500.00 Z100.00 E5000.00 ;Setup machine max acceleration
M203 X500.00 Y500.00 Z10.00 E50.00 ;Setup machine max feedrate
M204 P500.00 R1000.00 T500.00 ;Setup Print/Retract/Travel acceleration
M205 X8.00 Y8.00 Z0.40 E5.00 ;Setup Jerk
M220 S100 ;Reset Feedrate
M221 S100 ;Reset Flowrate

G28 ;Home

G92 E0 ;Reset Extruder
G1 Z2.0 F3000 ;Move Z Axis up
G1 X10.1 Y20 Z0.28 F5000.0 ;Move to start position
G1 X10.1 Y200.0 Z0.28 F1500.0 E15 ;Draw the first line
G1 X10.4 Y200.0 Z0.28 F5000.0 ;Move to side a little
G1 X10.4 Y20 Z0.28 F1500.0 E30 ;Draw the second line
G92 E0 ;Reset Extruder
G1 Z2.0 F3000 ;Move Z Axis up

G92 E0
G92 E0
G1 F2700 E-5
;LAYER_COUNT:42
;LAYER:0
M107
G0 F6000 X129.021 Y112.256 Z0.28
;TYPE:SKIRT
G1 F2700 E0
G1 F1200 X129.691 Y111.599 E0.04369
G1 X130.413 Y111.001 E0.08735
G1 X131.184 Y110.467 E0.13102
G1 X131.927 Y110.037 E0.17099
G1 X132.774 Y109.634 E0.21467
G1 X133.652 Y109.305 E0.25833
G1 X134.555 Y109.051 E0.30201
G1 X135.476 Y108.876 E0.34566
G1 X136.765 Y108.763 E0.40591
G1 X137.085 Y108.754 E0.42082
G1 X137.394 Y108.75 E0.43521
G1 X140.612 Y108.75 E0.58505
G1 X141.752 Y108.754 E0.63814
G1 X142.274 Y108.75 E0.66244
G1 X146.531 Y108.751 E0.86067
G1 X148.239 Y108.775 E0.94021
G1 X148.57 Y108.784 E0.95562
G1 X151.116 Y108.791 E1.07418
G1 X152.391 Y108.762 E1.13356
G1 X153.479 Y108.75 E1.18423
G1 X157.84 Y108.75 E1.38729
G1 X159.143 Y108.754 E1.44797
G1 X159.66 Y108.75 E1.47204
G1 X162.393 Y108.751 E1.5993
G1 X163.095 Y108.761 E1.63199
G1 X164.031 Y108.814 E1.67565
G1 X164.959 Y108.947 E1.7193
G1 X165.873 Y109.159 E1.76299
G1 X166.766 Y109.447 E1.80668
G1 X167.63 Y109.811 E1.85034
G1 X168.461 Y110.247 E1.89403
G1 X169.251 Y110.752 E1.93769
G1 X169.995 Y111.322 E1.98133
G1 X170.688 Y111.954 E2.02501
G1 X171.325 Y112.643 E2.0687
G1 X172.048 Y113.595 E2.12436
G1 X172.67 Y114.516 E2.17611
G1 X173.097 Y115.166 E2.21233
G1 X174.55 Y117.246 E2.33047
G1 X176.051 Y119.27 E2.44781
G1 X177.588 Y121.226 E2.56364
G1 X179.206 Y123.169 E2.68138
G1 X180.879 Y125.064 E2.79908
G1 X182.589 Y126.897 E2.91581
G1 X184.394 Y128.723 E3.03537
G1 X184.685 Y129.005 E3.05424
G1 X184.885 Y129.204 E3.06737
G1 X185.639 Y129.973 E3.11752
G1 X185.883 Y130.228 E3.13395
G1 X186.493 Y130.941 E3.17765
G1 X186.965 Y131.59 E3.21501
G1 X187.369 Y132.19 E3.2487
G1 X187.86 Y132.99 E3.2924
G1 X188.321 Y133.922 E3.34082
G1 X188.589 Y134.534 E3.37193
G1 X188.75 Y134.921 E3.39145
G1 X189.061 Y135.806 E3.43513
G1 X189.245 Y136.487 E3.46798
G1 X189.385 Y137.082 E3.49644
G1 X189.465 Y137.45 E3.51397
G1 X189.618 Y138.376 E3.55768
G1 X189.685 Y139.153 E3.59399
G1 X189.717 Y139.789 E3.62364
G1 X189.731 Y140.276 E3.64633
G1 X189.703 Y141.214 E3.69003
G1 X189.637 Y141.863 E3.7204
G1 X189.55 Y142.52 E3.75126
G1 X189.491 Y142.911 E3.76967
G1 X189.302 Y143.829 E3.81332
G1 X189.101 Y144.53 E3.84727
G1 X188.915 Y145.106 E3.87546
G1 X188.778 Y145.503 E3.89501
G1 X188.744 Y145.596 E3.89963
G1 X188.385 Y146.462 E3.94328
G1 X188.105 Y147.021 E3.97239
G1 X187.791 Y147.606 E4.00331
G1 X187.566 Y148.007 E4.02472
G1 X187.059 Y148.796 E4.06839
G1 X186.655 Y149.334 E4.09972
G1 X186.252 Y149.838 E4.12976
G1 X185.916 Y150.238 E4.15409
G1 X185.82 Y150.347 E4.16085
G1 X185.16 Y151.035 E4.20525
G1 X183.237 Y152.87 E4.32901
G1 X181.48 Y154.645 E4.44531
G1 X179.767 Y156.475 E4.56203
G1 X178.077 Y158.388 E4.68089
G1 X176.491 Y160.288 E4.79613
G1 X174.927 Y162.272 E4.91377
G1 X173.438 Y164.275 E5.02999
G1 X171.974 Y166.369 E5.14896
G1 X170.596 Y168.461 E5.2656
G1 X169.272 Y170.599 E5.3827
G1 X168.005 Y172.785 E5.50035
G1 X166.805 Y174.991 E5.61729
G1 X165.667 Y177.235 E5.73445
G1 X164.603 Y179.49 E5.85055
G1 X163.557 Y181.877 E5.9719
G1 X162.975 Y183.294 E6.04323
G1 X162.712 Y183.951 E6.07619
G1 X162.327 Y184.806 E6.11985
G1 X161.87 Y185.625 E6.16352
G1 X161.344 Y186.402 E6.20721
G1 X160.755 Y187.132 E6.25089
G1 X160.059 Y187.853 E6.29755
G1 X159.803 Y188.095 E6.31395
G1 X159.094 Y188.709 E6.35763
G1 X158.336 Y189.261 E6.40129
G1 X157.534 Y189.747 E6.44496
G1 X156.693 Y190.162 E6.48862
G1 X155.819 Y190.504 E6.53233
G1 X154.92 Y190.771 E6.57599
G1 X154.002 Y190.96 E6.61964
G1 X153.07 Y191.07 E6.66334
G1 X152.117 Y191.1 E6.70773
G1 X151.019 Y191.087 E6.75887
G1 X148.525 Y191.091 E6.875
G1 X147.906 Y191.1 E6.90382
G1 X146.969 Y191.074 E6.94747
G1 X146.037 Y190.968 E6.99115
G1 X145.117 Y190.783 E7.03484
G1 X144.217 Y190.52 E7.0785
G1 X143.342 Y190.182 E7.12218
G1 X142.5 Y189.77 E7.16583
G1 X141.695 Y189.288 E7.20952
G1 X140.934 Y188.74 E7.25319
G1 X140.471 Y188.354 E7.28126
G1 X140.252 Y188.161 E7.29485
G1 X139.511 Y187.443 E7.34289
G1 X138.897 Y186.734 E7.38657
G1 X138.345 Y185.976 E7.43023
G1 X137.86 Y185.173 E7.47391
G1 X137.339 Y184.085 E7.53008
G1 X136.874 Y182.954 E7.58702
G1 X136.62 Y182.316 E7.619
G1 X135.616 Y179.986 E7.73714
G1 X134.559 Y177.711 E7.85395
G1 X133.448 Y175.488 E7.96967
G1 X132.237 Y173.228 E8.08906
G1 X130.99 Y171.049 E8.20596
G1 X129.691 Y168.923 E8.32197
G1 X128.311 Y166.799 E8.43992
G1 X126.888 Y164.741 E8.55642
G1 X125.38 Y162.685 E8.67515
G1 X123.836 Y160.702 E8.79218
G1 X122.247 Y158.775 E8.90848
G1 X120.582 Y156.87 E9.02629
G1 X118.894 Y155.044 E9.14208
G1 X117.117 Y153.226 E9.26045
G1 X115.282 Y151.456 E9.37917
G1 X115.099 Y151.284 E9.39087
G1 X114.863 Y151.057 E9.40611
G1 X114.175 Y150.332 E9.45265
G1 X113.773 Y149.868 E9.48124
G1 X113.515 Y149.558 E9.50002
G1 X113.437 Y149.461 E9.50582
G1 X112.881 Y148.706 E9.54948
G1 X112.544 Y148.173 E9.57884
G1 X112.197 Y147.587 E9.61055
G1 X111.809 Y146.873 E9.64839
G1 X111.327 Y145.758 E9.70495
G1 X111.09 Y145.115 E9.73686
G1 X110.917 Y144.608 E9.76181
G1 X110.67 Y143.704 E9.80544
G1 X110.558 Y143.144 E9.83204
G1 X110.448 Y142.51 E9.862
G1 X110.375 Y142.027 E9.88475
G1 X110.29 Y141.093 E9.92842
G1 X110.278 Y140.451 E9.95832
G1 X110.285 Y139.763 E9.99035
G1 X110.3 Y139.273 E10.01318
G1 X110.388 Y138.339 E10.05686
G1 X110.488 Y137.737 E10.08528
G1 X110.613 Y137.094 E10.11578
G1 X110.704 Y136.671 E10.13593
G1 X110.952 Y135.767 E10.17958
G1 X111.174 Y135.143 E10.21042
G1 X111.409 Y134.539 E10.2406
G1 X111.576 Y134.133 E10.26104
G1 X111.61 Y134.055 E10.265
G1 X112.021 Y133.212 E10.30867
G1 X112.34 Y132.662 E10.33828
G1 X112.663 Y132.14 E10.36686
G1 X112.864 Y131.826 E10.38422
G1 X112.918 Y131.745 E10.38875
G1 X113.471 Y130.988 E10.43241
G1 X113.916 Y130.464 E10.46442
G1 X114.375 Y129.957 E10.49626
G1 X114.659 Y129.656 E10.51553
G1 X114.934 Y129.378 E10.53374
G1 X115.328 Y128.994 E10.55936
G1 X117.112 Y127.207 E10.67694
G1 X118.822 Y125.393 E10.79302
G1 X120.513 Y123.496 E10.91135
G1 X122.139 Y121.565 E11.0289
G1 X123.696 Y119.605 E11.14546
G1 X125.203 Y117.594 E11.26247
G1 X126.675 Y115.508 E11.38135
G1 X127.697 Y113.981 E11.46691
G1 X127.863 Y113.729 E11.48096
G1 X128.411 Y112.968 E11.52463
G1 X129.021 Y112.256 E11.56829
G0 F6000 X129.337 Y112.505
G1 F1200 X129.996 Y111.862 E11.61116
G1 X130.709 Y111.279 E11.65405
G1 X131.469 Y110.76 E11.6969
G1 X132.114 Y110.391 E11.7315
G1 X132.946 Y109.996 E11.77439
G1 X133.809 Y109.674 E11.81728
G1 X134.696 Y109.429 E11.86013
G1 X135.601 Y109.262 E11.90298
G1 X136.776 Y109.163 E11.95789
G1 X137.096 Y109.154 E11.97279
G1 X137.394 Y109.15 E11.98667
G1 X140.611 Y109.15 E12.13647
G1 X141.754 Y109.154 E12.18969
G1 X142.277 Y109.15 E12.21404
G1 X146.525 Y109.151 E12.41185
G1 X148.419 Y109.179 E12.50005
G1 X148.59 Y109.184 E12.50802
G1 X151.124 Y109.191 E12.62601
G1 X152.396 Y109.162 E12.68526
G1 X153.479 Y109.15 E12.73569
G1 X157.839 Y109.15 E12.93871
G1 X159.145 Y109.154 E12.99952
G1 X159.663 Y109.15 E13.02364
G1 X162.387 Y109.151 E13.15048
G1 X163.089 Y109.161 E13.18318
G1 X164.008 Y109.214 E13.22604
G1 X164.919 Y109.347 E13.26891
G1 X165.815 Y109.558 E13.31177
G1 X166.69 Y109.846 E13.35466
G1 X167.536 Y110.209 E13.39753
G1 X168.347 Y110.644 E13.44038
G1 X169.118 Y111.148 E13.48328
G1 X169.842 Y111.716 E13.52612
G1 X170.514 Y112.346 E13.56902
G1 X171.128 Y113.031 E13.61185
G1 X171.717 Y113.82 E13.6577
G1 X172.336 Y114.736 E13.70918
G1 X172.768 Y115.393 E13.74579
G1 X174.217 Y117.467 E13.8636
G1 X175.731 Y119.51 E13.982
G1 X177.282 Y121.483 E14.09886
G1 X178.915 Y123.444 E14.21769
G1 X180.57 Y125.319 E14.33415
G1 X182.313 Y127.186 E14.45308
G1 X184.091 Y128.986 E14.57089
G1 X184.407 Y129.292 E14.59137
G1 X184.6 Y129.484 E14.60405
G1 X185.354 Y130.253 E14.6542
G1 X185.59 Y130.501 E14.67014
G1 X186.189 Y131.201 E14.71304
G1 X186.634 Y131.814 E14.74831
G1 X187.038 Y132.414 E14.78199
G1 X187.518 Y133.199 E14.82484
G1 X187.955 Y134.082 E14.87071
G1 X188.223 Y134.694 E14.90182
G1 X188.379 Y135.069 E14.92073
G1 X188.683 Y135.938 E14.9636
G1 X188.855 Y136.578 E14.99446
G1 X188.995 Y137.173 E15.02292
G1 X189.074 Y137.532 E15.04004
G1 X189.223 Y138.441 E15.08293
G1 X189.286 Y139.173 E15.11714
G1 X189.318 Y139.809 E15.14679
G1 X189.331 Y140.281 E15.16878
G1 X189.303 Y141.202 E15.21169
G1 X189.24 Y141.811 E15.2402
G1 X189.153 Y142.468 E15.27106
G1 X189.096 Y142.847 E15.2889
G1 X188.91 Y143.748 E15.33174
G1 X188.72 Y144.407 E15.36368
G1 X188.534 Y144.983 E15.39186
G1 X188.403 Y145.366 E15.41071
G1 X188.369 Y145.459 E15.41532
G1 X188.015 Y146.309 E15.4582
G1 X187.753 Y146.832 E15.48543
G1 X187.439 Y147.417 E15.51635
G1 X187.22 Y147.805 E15.5371
G1 X186.722 Y148.579 E15.57995
G1 X186.343 Y149.084 E15.60935
G1 X185.94 Y149.588 E15.6394
G1 X185.616 Y149.974 E15.66287
G1 X185.52 Y150.083 E15.66963
G1 X184.883 Y150.745 E15.71241
G1 X182.995 Y152.547 E15.83394
G1 X181.187 Y154.373 E15.95359
G1 X179.458 Y156.22 E16.0714
G1 X177.786 Y158.113 E16.18901
G1 X176.172 Y160.047 E16.3063
G1 X174.608 Y162.031 E16.42394
G1 X173.105 Y164.053 E16.54125
G1 X171.639 Y166.149 E16.66035
G1 X170.264 Y168.236 E16.77673
G1 X168.935 Y170.383 E16.89431
G1 X167.666 Y172.571 E17.01208
G1 X166.455 Y174.798 E17.13012
G1 X165.307 Y177.062 E17.24832
G1 X164.219 Y179.367 E17.36701
G1 X163.202 Y181.69 E17.48509
G1 X162.64 Y183.057 E17.55391
G1 X162.341 Y183.803 E17.59133
G1 X161.962 Y184.641 E17.63416
G1 X161.511 Y185.444 E17.67705
G1 X160.993 Y186.205 E17.71991
G1 X160.41 Y186.918 E17.7628
G1 X159.784 Y187.562 E17.80462
G1 X159.528 Y187.804 E17.82102
G1 X158.832 Y188.407 E17.8639
G1 X158.086 Y188.947 E17.90678
G1 X157.297 Y189.42 E17.94962
G1 X156.469 Y189.823 E17.9925
G1 X155.609 Y190.153 E18.03539
G1 X154.724 Y190.407 E18.07826
G1 X153.821 Y190.583 E18.1211
G1 X152.905 Y190.68 E18.16399
G1 X152.121 Y190.7 E18.20051
G1 X151.022 Y190.687 E18.25169
G1 X148.518 Y190.691 E18.36829
G1 X147.9 Y190.7 E18.39707
G1 X146.98 Y190.673 E18.43992
G1 X146.066 Y190.567 E18.48277
G1 X145.164 Y190.382 E18.52564
G1 X144.281 Y190.119 E18.56854
G1 X143.425 Y189.781 E18.6114
G1 X142.601 Y189.37 E18.65427
G1 X141.816 Y188.889 E18.69714
G1 X140.736 Y188.054 E18.76071
G1 X140.517 Y187.861 E18.7743
G1 X139.802 Y187.168 E18.82067
G1 X139.199 Y186.472 E18.86355
G1 X138.659 Y185.726 E18.90643
G1 X138.186 Y184.936 E18.94931
G1 X137.709 Y183.933 E19.00102
G1 X137.245 Y182.806 E19.05777
G1 X136.987 Y182.158 E19.09025
G1 X135.982 Y179.825 E19.20854
G1 X134.908 Y177.514 E19.3272
G1 X133.801 Y175.299 E19.4425
G1 X132.595 Y173.047 E19.56146
G1 X131.345 Y170.863 E19.67863
G1 X130.009 Y168.676 E19.79796
G1 X128.659 Y166.6 E19.91327
G1 X127.195 Y164.482 E20.03316
G1 X125.702 Y162.448 E20.15065
G1 X124.162 Y160.468 E20.26745
G1 X122.555 Y158.521 E20.385
G1 X120.877 Y156.6 E20.50377
G1 X119.173 Y154.756 E20.62069
G1 X117.415 Y152.959 E20.73774
G1 X115.544 Y151.152 E20.85886
G1 X115.377 Y150.996 E20.86951
G1 X115.141 Y150.769 E20.88475
G1 X114.478 Y150.07 E20.92961
G1 X114.076 Y149.606 E20.9582
G1 X113.826 Y149.308 E20.97631
G1 X113.748 Y149.211 E20.98211
G1 X113.203 Y148.469 E21.02498
G1 X112.888 Y147.969 E21.0525
G1 X112.541 Y147.383 E21.08421
G1 X112.167 Y146.694 E21.12071
G1 X111.702 Y145.62 E21.17521
G1 X111.465 Y144.977 E21.20712
G1 X111.298 Y144.487 E21.23122
G1 X111.056 Y143.598 E21.27412
G1 X110.952 Y143.076 E21.29891
G1 X110.842 Y142.442 E21.32887
G1 X110.771 Y141.974 E21.35091
G1 X110.689 Y141.057 E21.39378
G1 X110.678 Y140.455 E21.42182
G1 X110.685 Y139.767 E21.45386
G1 X110.7 Y139.293 E21.47594
G1 X110.787 Y138.377 E21.51878
G1 X110.881 Y137.813 E21.54541
G1 X111.006 Y137.17 E21.57591
G1 X111.094 Y136.761 E21.59539
G1 X111.338 Y135.873 E21.63827
G1 X111.546 Y135.288 E21.66718
G1 X111.781 Y134.684 E21.69736
G1 X111.977 Y134.214 E21.72107
G1 X112.381 Y133.387 E21.76393
G1 X112.68 Y132.872 E21.79166
G1 X113.003 Y132.35 E21.82024
G1 X113.251 Y131.967 E21.84149
G1 X113.795 Y131.224 E21.88437
G1 X114.213 Y130.733 E21.91439
G1 X114.672 Y130.226 E21.94624
G1 X114.945 Y129.936 E21.96479
G1 X115.214 Y129.665 E21.98257
G1 X115.528 Y129.359 E22.00298
G1 X117.404 Y127.481 E22.12659
G1 X119.129 Y125.65 E22.24372
G1 X120.82 Y123.754 E22.36202
G1 X122.439 Y121.829 E22.47914
G1 X124.013 Y119.848 E22.59696
G1 X125.534 Y117.819 E22.71504
G1 X126.982 Y115.767 E22.83198
G1 X128.071 Y114.141 E22.92311
G1 X128.197 Y113.949 E22.9338
G1 X128.736 Y113.202 E22.97669
G1 X129.337 Y112.505 E23.01955
G0 F6000 X129.652 Y112.754
G1 F1200 X130.301 Y112.126 E23.0616
G1 X131.004 Y111.558 E23.10368
G1 X131.754 Y111.055 E23.14573
G1 X132.302 Y110.744 E23.17507
G1 X133.118 Y110.358 E23.21711
G1 X133.965 Y110.044 E23.25917
G1 X134.836 Y109.808 E23.30119
G1 X135.725 Y109.649 E23.34324
G1 X136.787 Y109.563 E23.39285
G1 X137.107 Y109.554 E23.40776
G1 X137.394 Y109.55 E23.42113
G1 X140.609 Y109.55 E23.57083
G1 X141.755 Y109.554 E23.62419
G1 X142.28 Y109.55 E23.64864
G1 X146.519 Y109.551 E23.84603
G1 X148.407 Y109.579 E23.93395
G1 X148.577 Y109.584 E23.94187
G1 X151.133 Y109.591 E24.06089
G1 X152.4 Y109.562 E24.1199
G1 X153.479 Y109.55 E24.17014
G1 X157.838 Y109.55 E24.37312
G1 X159.147 Y109.554 E24.43407
G1 X159.666 Y109.55 E24.45824
G1 X162.381 Y109.551 E24.58466
G1 X163.083 Y109.561 E24.61735
G1 X163.985 Y109.614 E24.65942
G1 X164.878 Y109.746 E24.70146
G1 X165.756 Y109.957 E24.74351
G1 X166.612 Y110.245 E24.78556
G1 X167.44 Y110.607 E24.82764
G1 X168.232 Y111.041 E24.86969
G1 X168.982 Y111.544 E24.91174
G1 X169.685 Y112.11 E24.95377
G1 X170.335 Y112.737 E24.99582
G1 X170.927 Y113.419 E25.03787
G1 X171.386 Y114.044 E25.07398
G1 X172.002 Y114.956 E25.12523
G1 X172.439 Y115.62 E25.16224
G1 X173.9 Y117.712 E25.28106
G1 X175.41 Y119.75 E25.39916
G1 X176.975 Y121.741 E25.51709
G1 X178.591 Y123.681 E25.63465
G1 X180.294 Y125.61 E25.75447
G1 X182.001 Y127.439 E25.87097
G1 X183.834 Y129.294 E25.9924
G1 X184.128 Y129.579 E26.01147
G1 X184.314 Y129.764 E26.02368
G1 X185.068 Y130.533 E26.07383
G1 X185.298 Y130.774 E26.08934
G1 X185.884 Y131.461 E26.13139
G1 X186.302 Y132.037 E26.16453
G1 X186.706 Y132.637 E26.19821
G1 X187.177 Y133.408 E26.24028
G1 X187.588 Y134.242 E26.28357
G1 X187.856 Y134.854 E26.31468
G1 X188.007 Y135.218 E26.33303
G1 X188.305 Y136.07 E26.37506
G1 X188.466 Y136.67 E26.40399
G1 X188.606 Y137.265 E26.43245
G1 X188.682 Y137.614 E26.44908
G1 X188.828 Y138.506 E26.49117
G1 X188.886 Y139.193 E26.52328
G1 X188.918 Y139.829 E26.55293
G1 X188.931 Y140.287 E26.57426
G1 X188.903 Y141.189 E26.61628
G1 X188.844 Y141.758 E26.64292
G1 X188.757 Y142.415 E26.67378
G1 X188.701 Y142.783 E26.69111
G1 X188.518 Y143.667 E26.73315
G1 X188.339 Y144.284 E26.76306
G1 X188.153 Y144.86 E26.79125
G1 X188.027 Y145.228 E26.80936
G1 X187.993 Y145.321 E26.81397
G1 X187.646 Y146.155 E26.85603
