;FLAVOR:Marlin
;TIME:3794
;Filament used: 3.60679m
;Layer height: 0.28
;MINX:116.5
;MINY:99
;MINZ:0.28
;MAXX:183.5
;MAXY:201
;MAXZ:19.88
;Generated with Cura_SteamEngine 4.8.0
M140 S50
M105
M190 S50
M104 S200
M105
M109 S200
M82 ;absolute extrusion mode
M201 X500.00 Y500.00 Z100.00 E5000.00 ;Setup machine max acceleration
M203 X500.00 Y500.00 Z10.00 E50.00 ;Setup machine max feedrate
M204 P500.00 R1000.00 T500.00 ;Setup Print/Retract/Travel acceleration
M205 X8.00 Y8.00 Z0.40 E5.00 ;Setup Jerk
M220 S100 ;Reset Feedrate
M221 S100 ;Reset Flowrate

G28 ;Home

G92 E0 ;Reset Extruder
G1 Z2.0 F3000 ;Move Z Axis up
G1 X10.1 Y20 Z0.28 F5000.0 ;Move to start position
G1 X10.1 Y200.0 Z0.28 F1500.0 E15 ;Draw the first line
G1 X10.4 Y200.0 Z0.28 F5000.0 ;Move to side a little
G1 X10.4 Y20 Z0.28 F1500.0 E30 ;Draw the second line
G92 E0 ;Reset Extruder
G1 Z2.0 F3000 ;Move Z Axis up

G92 E0
G92 E0
G1 F2700 E-5
;LAYER_COUNT:71
;LAYER:0
M107
G0 F6000 X119.066 Y102.958 Z0.28
;TYPE:SKIRT
G1 F2700 E0
G1 F1200 X119.698 Y102.264 E0.04371
G1 X120.386 Y101.627 E0.08737
G1 X121.126 Y101.051 E0.13103
G1 X121.912 Y100.539 E0.17471
G1 X122.739 Y100.097 E0.21838
G1 X123.601 Y99.727 E0.26205
G1 X124.491 Y99.431 E0.30573
G1 X125.403 Y99.213 E0.34939
G1 X126.33 Y99.072 E0.39305
G1 X127.201 Y99.013 E0.4337
G1 X127.522 Y99.004 E0.44866
G1 X127.83 Y99 E0.463
G1 X171.793 Y99 E2.5101
G1 X172.649 Y99.011 E2.54996
G1 X173.585 Y99.065 E2.59362
G1 X174.513 Y99.197 E2.63727
G1 X175.427 Y99.409 E2.68096
G1 X176.319 Y99.698 E2.72462
G1 X177.184 Y100.061 E2.7683
G1 X178.014 Y100.497 E2.81195
G1 X178.805 Y101.002 E2.85565
G1 X179.549 Y101.573 E2.89932
G1 X180.242 Y102.205 E2.943
G1 X180.879 Y102.893 E2.98665
G1 X181.454 Y103.634 E3.03033
G1 X181.965 Y104.42 E3.07398
G1 X182.407 Y105.248 E3.11769
G1 X182.776 Y106.11 E3.16135
G1 X183.071 Y107 E3.20501
G1 X183.289 Y107.912 E3.24867
G1 X183.429 Y108.84 E3.29237
G1 X183.487 Y109.701 E3.33255
G1 X183.496 Y110.021 E3.34746
G1 X183.5 Y110.33 E3.36185
G1 X183.499 Y189.4 E7.04368
G1 X183.49 Y190.127 E7.07754
G1 X183.439 Y191.064 E7.12123
G1 X183.307 Y191.992 E7.16488
G1 X183.098 Y192.906 E7.20854
G1 X182.811 Y193.799 E7.25221
G1 X182.449 Y194.665 E7.29592
G1 X182.015 Y195.496 E7.33957
G1 X181.511 Y196.287 E7.38325
G1 X180.942 Y197.032 E7.4269
G1 X180.311 Y197.727 E7.47061
G1 X179.624 Y198.365 E7.51426
G1 X178.885 Y198.942 E7.55792
G1 X178.099 Y199.454 E7.6016
G1 X177.273 Y199.897 E7.64525
G1 X176.411 Y200.269 E7.68896
G1 X175.522 Y200.565 E7.73259
G1 X174.61 Y200.785 E7.77628
G1 X173.683 Y200.926 E7.81994
G1 X172.799 Y200.987 E7.8612
G1 X172.478 Y200.996 E7.87615
G1 X172.17 Y201 E7.89049
G1 X128.065 Y200.999 E9.94421
G1 X127.367 Y200.99 E9.97671
G1 X126.431 Y200.938 E10.02036
G1 X125.502 Y200.806 E10.06406
G1 X124.588 Y200.596 E10.10772
G1 X123.695 Y200.309 E10.1514
G1 X122.83 Y199.946 E10.19508
G1 X121.999 Y199.512 E10.23874
G1 X121.208 Y199.008 E10.28241
G1 X120.463 Y198.438 E10.32609
G1 X119.769 Y197.807 E10.36977
G1 X119.132 Y197.12 E10.41339
G1 X118.555 Y196.38 E10.45708
G1 X118.043 Y195.594 E10.50076
G1 X117.6 Y194.767 E10.54445
G1 X117.229 Y193.906 E10.5881
G1 X116.933 Y193.016 E10.63178
G1 X116.714 Y192.104 E10.67545
G1 X116.573 Y191.177 E10.71911
G1 X116.513 Y190.288 E10.7606
G1 X116.504 Y189.955 E10.77612
G1 X116.5 Y189.658 E10.78995
G1 X116.501 Y110.525 E14.47471
G1 X116.51 Y109.86 E14.50568
G1 X116.563 Y108.924 E14.54933
G1 X116.695 Y107.995 E14.59302
G1 X116.906 Y107.081 E14.6367
G1 X117.194 Y106.189 E14.68035
G1 X117.557 Y105.324 E14.72403
G1 X117.992 Y104.493 E14.76771
G1 X118.496 Y103.703 E14.81134
G1 X119.066 Y102.958 E14.85502
G0 F6000 X119.461 Y103.111
G1 F1200 X120.089 Y102.439 E14.89785
G1 X120.774 Y101.823 E14.94075
G1 X121.51 Y101.27 E14.98361
G1 X122.291 Y100.782 E15.02649
G1 X123.111 Y100.364 E15.06935
G1 X123.965 Y100.019 E15.11224
G1 X124.845 Y99.749 E15.1551
G1 X125.745 Y99.557 E15.19795
G1 X126.659 Y99.443 E15.24084
G1 X127.212 Y99.413 E15.26663
G1 X127.533 Y99.404 E15.28158
G1 X127.83 Y99.4 E15.29541
G1 X171.793 Y99.4 E17.34252
G1 X172.643 Y99.411 E17.3821
G1 X173.562 Y99.464 E17.42496
G1 X174.473 Y99.597 E17.46783
G1 X175.369 Y99.808 E17.51069
G1 X176.243 Y100.096 E17.55354
G1 X177.09 Y100.459 E17.59645
G1 X177.901 Y100.894 E17.63931
G1 X178.671 Y101.398 E17.68216
G1 X179.395 Y101.967 E17.72504
G1 X180.067 Y102.597 E17.76793
G1 X180.682 Y103.282 E17.81079
G1 X181.235 Y104.018 E17.85366
G1 X181.722 Y104.799 E17.89652
G1 X182.139 Y105.62 E17.9394
G1 X182.484 Y106.474 E17.98228
G1 X182.753 Y107.354 E18.02513
G1 X182.945 Y108.255 E18.06803
G1 X183.058 Y109.168 E18.11087
G1 X183.087 Y109.712 E18.13623
G1 X183.096 Y110.032 E18.15114
G1 X183.1 Y110.33 E18.16502
G1 X183.099 Y189.395 E21.84661
G1 X183.09 Y190.122 E21.88047
G1 X183.039 Y191.041 E21.92333
G1 X182.908 Y191.953 E21.96623
G1 X182.698 Y192.849 E22.00908
G1 X182.412 Y193.724 E22.05195
G1 X182.051 Y194.571 E22.09482
G1 X181.617 Y195.383 E22.13769
G1 X181.115 Y196.155 E22.18057
G1 X180.547 Y196.88 E22.22346
G1 X179.919 Y197.553 E22.26632
G1 X179.235 Y198.169 E22.30918
G1 X178.5 Y198.723 E22.35204
G1 X177.72 Y199.212 E22.39491
G1 X176.9 Y199.631 E22.43778
G1 X176.047 Y199.977 E22.48065
G1 X175.167 Y200.248 E22.52352
G1 X174.267 Y200.441 E22.56638
G1 X173.353 Y200.556 E22.60928
G1 X172.788 Y200.587 E22.63563
G1 X172.467 Y200.596 E22.65058
G1 X172.17 Y200.6 E22.66441
G1 X128.07 Y200.599 E24.71789
G1 X127.372 Y200.59 E24.7504
G1 X126.453 Y200.538 E24.79326
G1 X125.542 Y200.407 E24.83611
G1 X124.646 Y200.197 E24.87896
G1 X123.771 Y199.91 E24.92184
G1 X122.924 Y199.548 E24.96474
G1 X122.112 Y199.114 E25.00761
G1 X121.341 Y198.612 E25.05045
G1 X120.616 Y198.044 E25.09333
G1 X119.943 Y197.415 E25.13623
G1 X119.328 Y196.731 E25.17906
G1 X118.774 Y195.996 E25.22192
G1 X118.286 Y195.215 E25.2648
G1 X117.867 Y194.395 E25.30768
G1 X117.521 Y193.542 E25.35054
G1 X117.251 Y192.662 E25.3934
G1 X117.058 Y191.761 E25.43631
G1 X116.944 Y190.848 E25.47915
G1 X116.913 Y190.277 E25.50578
G1 X116.904 Y189.944 E25.52129
G1 X116.9 Y189.658 E25.53461
G1 X116.901 Y110.531 E29.21909
G1 X116.91 Y109.866 E29.25006
G1 X116.962 Y108.946 E29.29297
G1 X117.094 Y108.035 E29.33583
G1 X117.305 Y107.139 E29.37869
G1 X117.592 Y106.264 E29.42157
G1 X117.955 Y105.418 E29.46444
G1 X118.389 Y104.606 E29.50731
G1 X118.892 Y103.835 E29.55018
G1 X119.461 Y103.111 E29.59305
G0 F6000 X119.855 Y103.267
G1 F1200 X120.481 Y102.617 E29.63508
G1 X121.162 Y102.024 E29.67712
G1 X121.894 Y101.494 E29.7192
G1 X122.669 Y101.031 E29.76124
G1 X123.482 Y100.638 E29.80329
G1 X124.327 Y100.318 E29.84536
G1 X125.196 Y100.075 E29.88738
G1 X126.084 Y99.909 E29.92944
G1 X127.223 Y99.813 E29.98267
G1 X127.544 Y99.804 E29.99762
G1 X127.83 Y99.8 E30.01094
G1 X171.793 Y99.8 E32.05804
G1 X172.637 Y99.811 E32.09735
G1 X173.539 Y99.864 E32.13942
G1 X174.432 Y99.996 E32.18145
G1 X175.31 Y100.207 E32.2235
G1 X176.166 Y100.495 E32.26555
G1 X176.993 Y100.857 E32.30759
G1 X177.785 Y101.292 E32.34967
G1 X178.536 Y101.794 E32.39173
G1 X179.239 Y102.361 E32.43378
G1 X179.889 Y102.988 E32.47584
G1 X180.481 Y103.67 E32.51789
G1 X181.011 Y104.401 E32.55993
G1 X181.473 Y105.177 E32.60199
G1 X181.866 Y105.99 E32.64403
G1 X182.184 Y106.835 E32.68607
G1 X182.427 Y107.705 E32.72814
G1 X182.592 Y108.593 E32.77019
G1 X182.687 Y109.723 E32.823
G1 X182.696 Y110.043 E32.8379
G1 X182.7 Y110.33 E32.85127
G1 X182.699 Y189.39 E36.53263
G1 X182.69 Y190.117 E36.56649
G1 X182.639 Y191.019 E36.60855
G1 X182.508 Y191.913 E36.65063
G1 X182.299 Y192.791 E36.69265
G1 X182.013 Y193.648 E36.73472
G1 X181.652 Y194.476 E36.77678
G1 X181.22 Y195.268 E36.81879
G1 X180.719 Y196.02 E36.86087
G1 X180.153 Y196.724 E36.90293
G1 X179.528 Y197.375 E36.94495
G1 X178.847 Y197.969 E36.98703
G1 X178.116 Y198.5 E37.0291
G1 X177.342 Y198.964 E37.07112
G1 X176.529 Y199.358 E37.11319
G1 X175.685 Y199.678 E37.15522
G1 X174.815 Y199.923 E37.1973
G1 X173.928 Y200.089 E37.23932
G1 X172.777 Y200.187 E37.29311
G1 X172.456 Y200.196 E37.30807
G1 X172.17 Y200.2 E37.32139
G1 X128.075 Y200.199 E39.37463
G1 X127.377 Y200.19 E39.40714
G1 X126.476 Y200.139 E39.44916
G1 X125.582 Y200.007 E39.49124
G1 X124.704 Y199.798 E39.53326
G1 X123.847 Y199.511 E39.57535
G1 X123.02 Y199.15 E39.61737
G1 X122.227 Y198.717 E39.65944
G1 X121.476 Y198.216 E39.70147
G1 X120.772 Y197.65 E39.74354
G1 X120.121 Y197.024 E39.78559
G1 X119.528 Y196.343 E39.82764
G1 X118.998 Y195.612 E39.86968
G1 X118.534 Y194.837 E39.91174
G1 X118.14 Y194.024 E39.95381
G1 X117.82 Y193.18 E39.99584
G1 X117.576 Y192.31 E40.03791
G1 X117.41 Y191.422 E40.07998
G1 X117.313 Y190.267 E40.13395
G1 X117.304 Y189.934 E40.14946
G1 X117.3 Y189.658 E40.16232
G1 X117.301 Y110.536 E43.84657
G1 X117.31 Y109.871 E43.87753
G1 X117.362 Y108.969 E43.91961
G1 X117.494 Y108.076 E43.96164
G1 X117.704 Y107.198 E44.00368
G1 X117.991 Y106.341 E44.04576
G1 X118.353 Y105.514 E44.0878
G1 X118.786 Y104.722 E44.12983
G1 X119.288 Y103.971 E44.17189
G1 X119.855 Y103.267 E44.21398
G1 F2700 E39.21398
;MESH:senormount.stl
G0 F6000 X137.207 Y138.302
G0 X136.137 Y137.315
G0 X133.73 Y141.321
G0 X133.062 Y142.711
G0 X132.512 Y144.153
G0 X132.086 Y145.635
G0 X131.782 Y147.147
G0 X131.607 Y148.681
G0 X131.562 Y150.22
G0 X131.645 Y151.761
G0 X131.856 Y153.29
G0 X132.195 Y154.795
G0 X132.658 Y156.266
G0 X133.242 Y157.695
G0 X133.945 Y159.067
G0 X134.759 Y160.379
G0 X135.679 Y161.616
G0 X136.992 Y163.085
G0 X139.158 Y161.578
G0 X145.409 Y165.086
G0 X145.717 Y165.221
G0 X146.143 Y165.642
G0 X146.285 Y166.087
G0 X146.381 Y168.267
;TYPE:WALL-INNER
G1 F2700 E44.21398
G1 F1200 X148.331 Y168.525 E44.30557
G1 X149.905 Y168.6 E44.37895
G1 X151.479 Y168.542 E44.45229
G1 X153.043 Y168.35 E44.52566
G1 X154.583 Y168.027 E44.59893
G1 X156.092 Y167.574 E44.67229
G1 X157.557 Y166.996 E44.74563
G1 X158.967 Y166.296 E44.81893
G1 X160.314 Y165.479 E44.89229
G1 X161.587 Y164.551 E44.96564
G1 X162.777 Y163.518 E45.03902
G1 X163.874 Y162.389 E45.11232
G1 X164.872 Y161.171 E45.18564
G1 X165.764 Y159.873 E45.25898
G1 X166.543 Y158.504 E45.33232
G1 X167.203 Y157.073 E45.4057
G1 X167.74 Y155.592 E45.47906
G1 X168.149 Y154.073 E45.55231
G1 X168.429 Y152.522 E45.62569
G1 X168.576 Y150.954 E45.69903
G1 X168.59 Y149.379 E45.77237
G1 X168.472 Y147.808 E45.84573
G1 X168.219 Y146.254 E45.91904
G1 X167.837 Y144.726 E45.99238
G1 X167.327 Y143.235 E46.06576
G1 X166.693 Y141.794 E46.13906
G1 X165.939 Y140.412 E46.21237
G1 X165.07 Y139.097 E46.28576
G1 X164.094 Y137.861 E46.3591
G1 X163.016 Y136.712 E46.43246
G1 X161.845 Y135.659 E46.50579
G1 X160.59 Y134.708 E46.57911
G1 X158.925 Y133.657 E46.67079
G1 X158.75 Y133.547 E46.68042
G1 X158.647 Y133.726 E46.68657
G1 X157.897 Y135.032 E46.7567
G1 X157.677 Y135.326 E46.77379
G1 X157.413 Y135.541 E46.78965
G1 X157.109 Y135.686 E46.80533
G1 X156.779 Y135.753 E46.82101
G1 X156.442 Y135.739 E46.83672
G1 X156.082 Y135.635 E46.85417
G1 X155.582 Y135.432 E46.87929
G1 X155.042 Y135.237 E46.90603
G1 X154.531 Y135.074 E46.931
G1 X154.193 Y134.925 E46.9482
G1 X153.92 Y134.713 E46.9643
G1 X153.71 Y134.448 E46.98004
G1 X153.571 Y134.145 E46.99556
G1 X153.509 Y133.817 E47.01111
G1 X153.528 Y133.452 E47.02813
G1 X153.79 Y131.963 E47.09853
G1 X153.825 Y131.76 E47.10812
G1 X153.621 Y131.734 E47.11423
G1 X153.62 Y131.733 E47.11429
G1 X151.687 Y131.476 E47.20509
G1 X150.133 Y131.4 E47.27754
G1 X148.578 Y131.454 E47.34999
G1 X147.033 Y131.637 E47.42244
G1 X145.509 Y131.951 E47.49489
G1 X144.016 Y132.388 E47.56733
G1 X142.564 Y132.951 E47.63984
G1 X141.166 Y133.632 E47.71225
G1 X139.828 Y134.427 E47.78472
G1 X138.562 Y135.331 E47.85716
G1 X137.376 Y136.339 E47.92964
G1 X136.278 Y137.443 E48.00214
G1 X135.277 Y138.633 E48.07455
G1 X134.379 Y139.904 E48.14701
G1 X133.589 Y141.244 E48.21944
G1 X132.914 Y142.647 E48.29194
G1 X132.359 Y144.101 E48.36441
G1 X131.929 Y145.596 E48.43685
G1 X131.623 Y147.122 E48.50932
G1 X131.447 Y148.668 E48.58177
G1 X131.401 Y150.223 E48.65421
G1 X131.484 Y151.777 E48.72667
G1 X131.698 Y153.318 E48.79912
G1 X132.039 Y154.837 E48.87161
G1 X132.506 Y156.321 E48.94405
G1 X133.096 Y157.762 E49.01656
G1 X133.804 Y159.147 E49.08899
G1 X134.626 Y160.469 E49.16147
G1 X135.554 Y161.717 E49.23389
G1 X136.844 Y163.178 E49.32464
G1 X136.981 Y163.334 E49.33431
G1 X137.131 Y163.19 E49.34049
G1 X138.22 Y162.145 E49.41076
G1 X138.513 Y161.926 E49.4278
G1 X138.823 Y161.795 E49.44347
G1 X139.16 Y161.741 E49.45936
G1 X139.49 Y161.769 E49.47478
G1 X139.807 Y161.875 E49.49035
G1 X140.145 Y162.092 E49.50905
G1 X141.087 Y162.803 E49.564
G1 X142.126 Y163.468 E49.62145
G1 X143.214 Y164.046 E49.67881
G1 X144.345 Y164.539 E49.73626
G1 X145.463 Y164.924 E49.79132
G1 X145.807 Y165.075 E49.80882
G1 X146.08 Y165.287 E49.82491
G1 X146.29 Y165.552 E49.84065
G1 X146.429 Y165.855 E49.85618
G1 X146.491 Y166.182 E49.87168
G1 X146.471 Y166.555 E49.88907
G1 X146.211 Y168.036 E49.95908
G1 X146.175 Y168.24 E49.96873
G1 X146.381 Y168.267 E49.97491
G0 F6000 X146.641 Y167.898
;TYPE:WALL-OUTER
G1 F1200 X148.367 Y168.126 E50.05598
G1 X149.907 Y168.2 E50.12777
G1 X151.447 Y168.143 E50.19953
G1 X152.977 Y167.955 E50.27131
G1 X154.484 Y167.639 E50.34301
G1 X155.961 Y167.196 E50.41481
G1 X157.394 Y166.63 E50.48655
G1 X158.774 Y165.945 E50.55829
G1 X160.092 Y165.146 E50.63006
G1 X161.338 Y164.238 E50.70185
G1 X162.502 Y163.227 E50.77364
G1 X163.575 Y162.122 E50.84536
G1 X164.552 Y160.93 E50.91713
G1 X165.425 Y159.66 E50.98889
G1 X166.187 Y158.321 E51.06063
G1 X166.833 Y156.921 E51.13242
G1 X167.358 Y155.472 E51.20418
G1 X167.758 Y153.985 E51.27589
G1 X168.032 Y152.468 E51.34767
G1 X168.176 Y150.933 E51.41946
G1 X168.19 Y149.392 E51.49122
G1 X168.074 Y147.855 E51.56299
G1 X167.827 Y146.335 E51.63469
G1 X167.453 Y144.839 E51.7065
G1 X166.954 Y143.381 E51.77825
G1 X166.334 Y141.971 E51.84998
G1 X165.596 Y140.618 E51.92174
G1 X164.746 Y139.332 E51.99352
G1 X163.791 Y138.122 E52.0653
G1 X162.736 Y136.998 E52.13708
G1 X161.59 Y135.968 E52.20883
G1 X160.362 Y135.037 E52.28058
G1 X158.889 Y134.108 E52.36168
G1 X158.232 Y135.252 E52.4231
G1 X157.967 Y135.606 E52.4437
G1 X157.628 Y135.882 E52.46405
G1 X157.239 Y136.068 E52.48413
G1 X156.809 Y136.155 E52.50456
G1 X156.38 Y136.137 E52.52455
G1 X155.943 Y136.011 E52.54573
G1 X155.439 Y135.806 E52.57106
G1 X154.913 Y135.616 E52.5971
G1 X154.391 Y135.449 E52.62262
G1 X153.987 Y135.271 E52.64318
G1 X153.636 Y134.999 E52.66386
G1 X153.368 Y134.66 E52.68398
G1 X153.187 Y134.266 E52.70417
G1 X153.107 Y133.847 E52.72403
G1 X153.13 Y133.403 E52.74474
G1 X153.359 Y132.102 E52.80625
G1 X151.651 Y131.875 E52.88648
G1 X150.13 Y131.8 E52.95739
G1 X148.609 Y131.853 E53.02826
G1 X147.097 Y132.032 E53.09915
G1 X145.606 Y132.339 E53.17004
G1 X144.145 Y132.767 E53.24092
G1 X142.724 Y133.318 E53.31189
G1 X141.356 Y133.984 E53.38274
G1 X140.047 Y134.762 E53.45365
G1 X138.808 Y135.647 E53.52455
G1 X137.648 Y136.633 E53.59544
G1 X136.573 Y137.713 E53.66639
G1 X135.594 Y138.878 E53.73725
G1 X134.715 Y140.121 E53.80814
G1 X133.942 Y141.433 E53.87905
G1 X133.282 Y142.805 E53.94994
G1 X132.739 Y144.228 E54.02086
G1 X132.318 Y145.691 E54.09175
G1 X132.019 Y147.184 E54.16265
G1 X131.846 Y148.697 E54.23356
G1 X131.801 Y150.218 E54.30442
G1 X131.883 Y151.739 E54.37534
G1 X132.092 Y153.247 E54.44623
G1 X132.426 Y154.733 E54.51715
G1 X132.883 Y156.185 E54.58803
G1 X133.46 Y157.595 E54.65897
G1 X134.153 Y158.95 E54.72984
G1 X134.957 Y160.244 E54.80078
G1 X135.865 Y161.465 E54.87163
G1 X137.005 Y162.757 E54.95186
G1 X137.959 Y161.841 E55.01345
G1 X138.311 Y161.577 E55.03394
G1 X138.713 Y161.407 E55.05426
G1 X139.147 Y161.338 E55.07472
