;FLAVOR:Marlin
;TIME:2478
;Filament used: 2.22623m
;Layer height: 0.28
;MINX:96.79
;MINY:81.583
;MINZ:0.28
;MAXX:203.212
;MAXY:188.013
;MAXZ:8.4
;Generated with Cura_SteamEngine 4.8.0
M140 S50
M105
M190 S50
M104 S200
M105
M109 S200
M82 ;absolute extrusion mode
M201 X500.00 Y500.00 Z100.00 E5000.00 ;Setup machine max acceleration
M203 X500.00 Y500.00 Z10.00 E50.00 ;Setup machine max feedrate
M204 P500.00 R1000.00 T500.00 ;Setup Print/Retract/Travel acceleration
M205 X8.00 Y8.00 Z0.40 E5.00 ;Setup Jerk
M220 S100 ;Reset Feedrate
M221 S100 ;Reset Flowrate

G28 ;Home

G92 E0 ;Reset Extruder
G1 Z2.0 F3000 ;Move Z Axis up
G1 X10.1 Y20 Z0.28 F5000.0 ;Move to start position
G1 X10.1 Y200.0 Z0.28 F1500.0 E15 ;Draw the first line
G1 X10.4 Y200.0 Z0.28 F5000.0 ;Move to side a little
G1 X10.4 Y20 Z0.28 F1500.0 E30 ;Draw the second line
G92 E0 ;Reset Extruder
G1 Z2.0 F3000 ;Move Z Axis up

G92 E0
G92 E0
G1 F2700 E-5
;LAYER_COUNT:30
;LAYER:0
M107
G0 F6000 X101.174 Y106.402 Z0.28
;TYPE:SKIRT
G1 F2700 E0
G1 F1200 X101.416 Y106.189 E0.01501
G1 X101.647 Y105.992 E0.02915
G1 X101.826 Y105.843 E0.03999
G1 X102.571 Y105.274 E0.08364
G1 X103.666 Y104.602 E0.14347
G1 X104.041 Y104.401 E0.16328
G1 X104.347 Y104.243 E0.17932
G1 X104.484 Y104.175 E0.18644
G1 X105.342 Y103.794 E0.23015
G1 X106.547 Y103.398 E0.28921
G1 X106.938 Y103.294 E0.30805
G1 X107.264 Y103.212 E0.32371
G1 X107.431 Y103.173 E0.33169
G1 X108.353 Y102.999 E0.37538
G1 X109.605 Y102.89 E0.4339
G1 X109.974 Y102.879 E0.45109
G1 X110.302 Y102.874 E0.46636
G1 X110.52 Y102.874 E0.47652
G1 X111.457 Y102.914 E0.52019
G1 X112.076 Y102.985 E0.5492
G1 X114.794 Y103.336 E0.67681
G1 X117.278 Y103.585 E0.79306
G1 X119.797 Y103.766 E0.91065
G1 X122.315 Y103.874 E1.02801
G1 X124.839 Y103.912 E1.14555
G1 X127.362 Y103.878 E1.26304
G1 X129.849 Y103.774 E1.37895
G1 X132.38 Y103.596 E1.49709
G1 X134.879 Y103.351 E1.61402
G1 X137.362 Y103.035 E1.73057
G1 X139.882 Y102.642 E1.84933
G1 X142.326 Y102.189 E1.96507
G1 X144.816 Y101.654 E2.08366
G1 X147.213 Y101.07 E2.19854
G1 X149.69 Y100.389 E2.31816
G1 X152.059 Y99.666 E2.43349
G1 X154.472 Y98.854 E2.55204
G1 X156.822 Y97.989 E2.66865
G1 X159.188 Y97.04 E2.78735
G1 X161.455 Y96.056 E2.90242
G1 X163.76 Y94.978 E3.02091
G1 X166.013 Y93.845 E3.13834
G1 X168.211 Y92.661 E3.25459
G1 X170.378 Y91.412 E3.37106
G1 X173.288 Y89.609 E3.53046
G1 X181.946 Y84.019 E4.01034
G1 X182.535 Y83.651 E4.04268
G1 X183.338 Y83.195 E4.08568
G1 X183.704 Y83.007 E4.10484
G1 X184.032 Y82.846 E4.12185
G1 X184.195 Y82.769 E4.13025
G1 X185.059 Y82.405 E4.1739
G1 X186.262 Y82.034 E4.23252
G1 X186.603 Y81.95 E4.24888
G1 X186.888 Y81.884 E4.2625
G1 X187.085 Y81.841 E4.27189
G1 X188.009 Y81.68 E4.31556
G1 X189.278 Y81.589 E4.3748
G1 X189.709 Y81.583 E4.39487
G1 X190.091 Y81.584 E4.41266
G1 X190.235 Y81.587 E4.41937
G1 X191.171 Y81.647 E4.46304
G1 X192.354 Y81.838 E4.51884
G1 X192.766 Y81.928 E4.53848
G1 X193.2 Y82.033 E4.55927
G1 X193.353 Y82.073 E4.56663
G1 X194.25 Y82.348 E4.61032
G1 X195.345 Y82.805 E4.66557
G1 X195.727 Y82.989 E4.68531
G1 X196.041 Y83.147 E4.70168
G1 X196.179 Y83.219 E4.70893
G1 X196.991 Y83.687 E4.75257
G1 X197.996 Y84.408 E4.81016
G1 X198.28 Y84.637 E4.82715
G1 X198.579 Y84.887 E4.8453
G1 X198.729 Y85.017 E4.85454
G1 X199.411 Y85.661 E4.89822
G1 X200.199 Y86.566 E4.9541
G1 X200.454 Y86.893 E4.97341
G1 X200.685 Y87.199 E4.99126
G1 X200.78 Y87.33 E4.99879
G1 X201.298 Y88.112 E5.04247
G1 X201.875 Y89.206 E5.10006
G1 X202.045 Y89.577 E5.11907
G1 X202.221 Y89.979 E5.1395
G1 X202.553 Y90.857 E5.18321
G1 X202.89 Y92.132 E5.24462
G1 X202.973 Y92.544 E5.26419
G1 X203.04 Y92.908 E5.28142
G1 X203.068 Y93.076 E5.28935
G1 X203.183 Y94.006 E5.33299
G1 X203.212 Y95.258 E5.3913
G1 X203.2 Y95.611 E5.40775
G1 X203.186 Y95.904 E5.42141
G1 X203.173 Y96.118 E5.43139
G1 X203.076 Y97.051 E5.47507
G1 X202.808 Y98.336 E5.53619
G1 X202.705 Y98.715 E5.55448
G1 X202.63 Y98.979 E5.56726
G1 X202.581 Y99.143 E5.57523
G1 X202.274 Y100.029 E5.61889
G1 X201.722 Y101.216 E5.67985
G1 X201.51 Y101.609 E5.70064
G1 X200.957 Y102.526 E5.7505
G1 X200.805 Y102.752 E5.76318
G1 X200.415 Y103.294 E5.79428
G1 X198.809 Y105.394 E5.91738
G1 X197.325 Y107.455 E6.03564
G1 X195.905 Y109.55 E6.15349
G1 X194.557 Y111.663 E6.27019
G1 X193.259 Y113.83 E6.38781
G1 X192.033 Y116.017 E6.50456
G1 X190.858 Y118.257 E6.62234
G1 X189.759 Y120.509 E6.73902
G1 X188.713 Y122.81 E6.85672
G1 X187.741 Y125.122 E6.9735
G1 X186.827 Y127.483 E7.09139
G1 X185.984 Y129.856 E7.20865
G1 X185.214 Y132.234 E7.32504
G1 X184.513 Y134.629 E7.44124
G1 X183.86 Y137.116 E7.56097
G1 X183.293 Y139.551 E7.67739
G1 X182.806 Y141.962 E7.79193
G1 X182.365 Y144.507 E7.9122
G1 X182.007 Y146.982 E8.02864
G1 X181.718 Y149.482 E8.14583
G1 X181.5 Y151.985 E8.26282
G1 X181.354 Y154.487 E8.37952
G1 X181.277 Y157.019 E8.49748
G1 X181.271 Y159.498 E8.61291
G1 X181.382 Y163.035 E8.77769
G1 X181.897 Y173.345 E9.25836
G1 X181.92 Y174.003 E9.28902
G1 X181.913 Y174.941 E9.3327
G1 X181.894 Y175.318 E9.35028
G1 X181.873 Y175.644 E9.36549
G1 X181.858 Y175.831 E9.37422
G1 X181.743 Y176.761 E9.41786
G1 X181.462 Y177.999 E9.47697
G1 X181.34 Y178.422 E9.49747
G1 X181.205 Y178.859 E9.51877
G1 X180.882 Y179.74 E9.56246
G1 X180.305 Y180.922 E9.62371
G1 X180.143 Y181.209 E9.63905
G1 X180.005 Y181.448 E9.6519
G1 X179.883 Y181.652 E9.66297
G1 X179.367 Y182.435 E9.70664
G1 X178.564 Y183.425 E9.76599
G1 X178.3 Y183.714 E9.78422
G1 X177.971 Y184.06 E9.80645
G1 X177.291 Y184.706 E9.85013
G1 X176.26 Y185.503 E9.91081
G1 X175.87 Y185.769 E9.93279
G1 X175.553 Y185.977 E9.95044
G1 X175.455 Y186.039 E9.95584
G1 X174.642 Y186.506 E9.9995
G1 X173.528 Y187.008 E10.0564
G1 X173.162 Y187.149 E10.07466
G1 X172.819 Y187.274 E10.09166
G1 X172.655 Y187.331 E10.09974
G1 X171.757 Y187.601 E10.14341
G1 X170.553 Y187.837 E10.20054
G1 X170.127 Y187.896 E10.22056
G1 X169.774 Y187.939 E10.23712
G1 X169.632 Y187.954 E10.24377
G1 X168.696 Y188.013 E10.28744
G1 X167.416 Y187.964 E10.34709
G1 X166.972 Y187.921 E10.36786
G1 X166.523 Y187.869 E10.38891
G1 X165.598 Y187.712 E10.43259
G1 X164.39 Y187.381 E10.49092
G1 X164.057 Y187.269 E10.50728
G1 X163.745 Y187.159 E10.52268
G1 X163.537 Y187.082 E10.53301
G1 X162.672 Y186.719 E10.57669
G1 X161.531 Y186.097 E10.6372
G1 X161.185 Y185.881 E10.65619
G1 X160.923 Y185.713 E10.67069
G1 X160.783 Y185.62 E10.67851
G1 X160.025 Y185.068 E10.72217
G1 X159.062 Y184.206 E10.78236
G1 X158.8 Y183.942 E10.79968
G1 X158.47 Y183.596 E10.82194
G1 X157.857 Y182.886 E10.86562
G1 X157.123 Y181.841 E10.92508
G1 X156.885 Y181.456 E10.94616
G1 X156.35 Y180.483 E10.99786
G1 X156.225 Y180.226 E11.01117
G1 X155.965 Y179.651 E11.04055
G1 X154.922 Y177.15 E11.16673
G1 X153.911 Y174.905 E11.28138
G1 X152.805 Y172.624 E11.39942
G1 X151.642 Y170.388 E11.51678
G1 X150.416 Y168.186 E11.63413
G1 X149.121 Y166.009 E11.75208
G1 X147.796 Y163.917 E11.86739
G1 X146.368 Y161.796 E11.98645
G1 X144.91 Y159.759 E12.10309
G1 X143.386 Y157.753 E12.2204
G1 X141.824 Y155.81 E12.33649
G1 X140.17 Y153.872 E12.45513
G1 X138.492 Y152.015 E12.57167
G1 X136.754 Y150.194 E12.68888
G1 X134.948 Y148.408 E12.80715
G1 X133.129 Y146.708 E12.92309
G1 X131.237 Y145.039 E13.04056
G1 X129.3 Y143.423 E13.15803
G1 X127.324 Y141.867 E13.27514
G1 X125.31 Y140.372 E13.39193
G1 X123.25 Y138.932 E13.50897
G1 X121.129 Y137.537 E13.62718
G1 X119.006 Y136.224 E13.74341
G1 X116.832 Y134.964 E13.86042
G1 X113.83 Y133.353 E14.01906
G1 X104.583 Y128.608 E14.50302
G1 X103.991 Y128.293 E14.53424
G1 X103.193 Y127.824 E14.57734
G1 X102.88 Y127.622 E14.59469
G1 X102.609 Y127.442 E14.60984
G1 X102.423 Y127.314 E14.62035
G1 X101.674 Y126.749 E14.66404
G1 X100.711 Y125.857 E14.72516
G1 X100.467 Y125.602 E14.74159
G1 X100.158 Y125.268 E14.76278
G1 X99.556 Y124.55 E14.80641
G1 X98.812 Y123.451 E14.86821
G1 X98.594 Y123.083 E14.88813
G1 X98.449 Y122.832 E14.90162
G1 X98.376 Y122.701 E14.90861
G1 X97.955 Y121.863 E14.95227
G1 X97.488 Y120.633 E15.01354
G1 X97.364 Y120.237 E15.03286
G1 X97.279 Y119.954 E15.04662
G1 X97.235 Y119.799 E15.05412
G1 X97.018 Y118.887 E15.09777
G1 X96.849 Y117.634 E15.15665
G1 X96.821 Y117.268 E15.17374
G1 X96.798 Y116.882 E15.19175
G1 X96.79 Y116.688 E15.20079
G1 X96.792 Y115.75 E15.24446
G1 X96.912 Y114.542 E15.30099
G1 X96.981 Y114.099 E15.32187
G1 X97.044 Y113.734 E15.33911
G1 X97.068 Y113.608 E15.34509
G1 X97.283 Y112.695 E15.38876
G1 X97.68 Y111.533 E15.44594
G1 X97.828 Y111.168 E15.46428
G1 X97.975 Y110.822 E15.48179
G1 X98.049 Y110.656 E15.49025
G1 X98.467 Y109.817 E15.5339
G1 X99.136 Y108.753 E15.59242
G1 X99.386 Y108.402 E15.61249
G1 X99.622 Y108.084 E15.63093
G1 X99.718 Y107.959 E15.63826
G1 X100.32 Y107.24 E15.68193
G1 X101.174 Y106.402 E15.73764
G0 F6000 X101.439 Y106.702
G1 F1200 X101.681 Y106.489 E15.75265
G1 X101.903 Y106.299 E15.76626
G1 X102.082 Y106.15 E15.77711
G1 X102.814 Y105.592 E15.81996
G1 X103.855 Y104.954 E15.87682
G1 X104.23 Y104.753 E15.89663
G1 X104.525 Y104.601 E15.91208
G1 X104.662 Y104.533 E15.9192
G1 X105.504 Y104.16 E15.96209
G1 X106.65 Y103.784 E16.01825
G1 X107.041 Y103.68 E16.03709
G1 X107.355 Y103.602 E16.05215
G1 X107.522 Y103.563 E16.06014
G1 X108.427 Y103.393 E16.10301
G1 X109.617 Y103.29 E16.15863
G1 X109.986 Y103.279 E16.17582
G1 X110.302 Y103.274 E16.19054
G1 X110.52 Y103.274 E16.20069
G1 X111.44 Y103.314 E16.24357
G1 X112.019 Y103.381 E16.27071
G1 X112.144 Y103.399 E16.27659
G1 X114.736 Y103.732 E16.39828
G1 X117.249 Y103.984 E16.51588
G1 X119.785 Y104.166 E16.63427
G1 X122.293 Y104.274 E16.75116
G1 X124.839 Y104.312 E16.86973
G1 X127.349 Y104.278 E16.98661
G1 X129.893 Y104.172 E17.10518
G1 X132.411 Y103.995 E17.22271
G1 X134.931 Y103.747 E17.34062
G1 X137.437 Y103.428 E17.45825
G1 X139.916 Y103.042 E17.57508
G1 X142.411 Y102.58 E17.69323
G1 X144.923 Y102.04 E17.81287
G1 X147.309 Y101.459 E17.92722
G1 X149.775 Y100.781 E18.04631
G1 X152.199 Y100.041 E18.16432
G1 X154.622 Y99.225 E18.28337
G1 X156.973 Y98.36 E18.40002
G1 X159.318 Y97.42 E18.51766
G1 X161.648 Y96.408 E18.63595
G1 X163.902 Y95.354 E18.75181
G1 X166.189 Y94.204 E18.87101
G1 X168.42 Y93.002 E18.98901
G1 X170.587 Y91.753 E19.10548
G1 X173.469 Y89.967 E19.26335
G1 X182.158 Y84.358 E19.74493
G1 X182.747 Y83.99 E19.77727
G1 X183.521 Y83.551 E19.8187
G1 X183.887 Y83.363 E19.83786
G1 X184.202 Y83.208 E19.85421
G1 X184.365 Y83.131 E19.8626
G1 X185.214 Y82.774 E19.90549
G1 X186.358 Y82.423 E19.96121
G1 X186.699 Y82.339 E19.97756
G1 X186.974 Y82.275 E19.99071
G1 X187.171 Y82.232 E20.0001
G1 X188.078 Y82.075 E20.04296
G1 X189.283 Y81.989 E20.09921
G1 X189.714 Y81.983 E20.11928
G1 X190.083 Y81.984 E20.13646
G1 X190.227 Y81.987 E20.14317
G1 X191.146 Y82.046 E20.18605
G1 X192.268 Y82.229 E20.23899
G1 X192.68 Y82.319 E20.25862
G1 X193.099 Y82.42 E20.27869
G1 X193.252 Y82.46 E20.28606
G1 X194.132 Y82.731 E20.32893
G1 X195.171 Y83.165 E20.38136
G1 X195.553 Y83.349 E20.40111
G1 X195.856 Y83.501 E20.41689
G1 X195.994 Y83.573 E20.42414
G1 X196.791 Y84.034 E20.46701
G1 X197.745 Y84.719 E20.5217
G1 X198.029 Y84.948 E20.53869
G1 X198.317 Y85.19 E20.5562
G1 X198.467 Y85.32 E20.56545
G1 X199.136 Y85.952 E20.6083
G1 X199.884 Y86.812 E20.66137
G1 X200.139 Y87.139 E20.68068
G1 X200.361 Y87.434 E20.69787
G1 X200.456 Y87.565 E20.70541
G1 X200.964 Y88.333 E20.74829
G1 X201.511 Y89.372 E20.80296
G1 X201.681 Y89.743 E20.82196
G1 X201.853 Y90.137 E20.84198
G1 X202.178 Y90.998 E20.88483
G1 X202.498 Y92.211 E20.94325
G1 X202.581 Y92.623 E20.96282
G1 X202.646 Y92.973 E20.9794
G1 X202.674 Y93.141 E20.98733
G1 X202.786 Y94.055 E21.0302
G1 X202.812 Y95.244 E21.08558
G1 X202.8 Y95.597 E21.10203
G1 X202.773 Y96.094 E21.12521
G1 X202.678 Y97.009 E21.16804
G1 X202.422 Y98.231 E21.22618
G1 X202.319 Y98.61 E21.24447
G1 X202.197 Y99.029 E21.26479
G1 X201.896 Y99.898 E21.30761
G1 X201.37 Y101.027 E21.36561
G1 X201.158 Y101.42 E21.3864
G1 X200.625 Y102.303 E21.43442
G1 X200.473 Y102.529 E21.44711
G1 X200.098 Y103.051 E21.47703
G1 X198.466 Y105.186 E21.60217
G1 X197.002 Y107.218 E21.71879
G1 X195.581 Y109.316 E21.83678
G1 X194.21 Y111.464 E21.95543
G1 X192.91 Y113.634 E22.07322
G1 X191.688 Y115.814 E22.18959
G1 X190.51 Y118.06 E22.30769
G1 X189.387 Y120.36 E22.42687
G1 X188.358 Y122.625 E22.54271
G1 X187.36 Y124.998 E22.66258
G1 X186.453 Y127.341 E22.77957
G1 X185.613 Y129.704 E22.89635
G1 X184.837 Y132.104 E23.0138
G1 X184.125 Y134.532 E23.13162
G1 X183.478 Y136.996 E23.25024
G1 X182.897 Y139.493 E23.36962
G1 X182.404 Y141.934 E23.48558
G1 X181.974 Y144.412 E23.60269
G1 X181.613 Y146.916 E23.72049
G1 X181.321 Y149.437 E23.83866
G1 X181.101 Y151.962 E23.95668
G1 X180.953 Y154.486 E24.07441
G1 X180.877 Y157.005 E24.19176
G1 X180.871 Y159.51 E24.3084
G1 X180.981 Y163.014 E24.47164
G1 X181.498 Y173.359 E24.95395
G1 X181.521 Y174.017 E24.98461
G1 X181.514 Y174.921 E25.02671
G1 X181.495 Y175.298 E25.04428
G1 X181.474 Y175.612 E25.05894
G1 X181.459 Y175.799 E25.06767
G1 X181.346 Y176.712 E25.11051
G1 X181.078 Y177.888 E25.16667
G1 X180.956 Y178.311 E25.18717
G1 X180.824 Y178.738 E25.20798
G1 X180.506 Y179.602 E25.25085
G1 X179.957 Y180.726 E25.3091
G1 X179.795 Y181.013 E25.32445
G1 X179.661 Y181.243 E25.33684
G1 X179.539 Y181.447 E25.34791
G1 X179.033 Y182.215 E25.39074
G1 X178.268 Y183.155 E25.44717
G1 X178.004 Y183.444 E25.4654
G1 X177.799 Y183.662 E25.47933
G1 X177.683 Y183.782 E25.4871
G1 X177.015 Y184.416 E25.52999
G1 X176.035 Y185.172 E25.58762
G1 X175.645 Y185.438 E25.6096
G1 X175.339 Y185.639 E25.62665
G1 X175.241 Y185.701 E25.63205
G1 X174.443 Y186.159 E25.67489
G1 X173.385 Y186.634 E25.72889
G1 X173.019 Y186.775 E25.74716
G1 X172.688 Y186.896 E25.76357
G1 X172.524 Y186.953 E25.77165
G1 X171.642 Y187.218 E25.81454
G1 X170.498 Y187.441 E25.86881
G1 X170.072 Y187.5 E25.88883
G1 X169.732 Y187.541 E25.90478
G1 X169.59 Y187.556 E25.91143
G1 X168.671 Y187.613 E25.9543
G1 X167.454 Y187.566 E26.01101
G1 X167.01 Y187.523 E26.03179
G1 X166.573 Y187.472 E26.05227
G1 X165.665 Y187.317 E26.09516
G1 X164.518 Y187.002 E26.15055
G1 X164.185 Y186.89 E26.16691
G1 X163.884 Y186.784 E26.18177
G1 X163.676 Y186.707 E26.1921
G1 X162.827 Y186.35 E26.23498
G1 X161.743 Y185.758 E26.2925
G1 X161.397 Y185.542 E26.31149
G1 X161.005 Y185.286 E26.33329
G1 X160.261 Y184.744 E26.37615
G1 X159.346 Y183.924 E26.43336
G1 X159.084 Y183.66 E26.45068
G1 X158.889 Y183.458 E26.46376
G1 X158.761 Y183.322 E26.47245
G1 X158.16 Y182.625 E26.51531
G1 X157.464 Y181.631 E26.57181
G1 X157.226 Y181.246 E26.59289
G1 X156.71 Y180.308 E26.64274
G1 X156.585 Y180.051 E26.65604
G1 X156.334 Y179.497 E26.68436
G1 X155.297 Y177.011 E26.80979
G1 X154.264 Y174.717 E26.92694
G1 X153.155 Y172.429 E27.04533
G1 X151.996 Y170.202 E27.16223
G1 X150.767 Y167.994 E27.2799
G1 X149.46 Y165.796 E27.39898
G1 X148.123 Y163.685 E27.51533
G1 X146.704 Y161.579 E27.63358
G1 X145.242 Y159.536 E27.75056
G1 X143.699 Y157.505 E27.86933
G1 X142.114 Y155.534 E27.9871
G1 X140.473 Y153.61 E28.10485
G1 X138.796 Y151.753 E28.22136
G1 X137.025 Y149.899 E28.34075
G1 X135.238 Y148.132 E28.45777
G1 X133.384 Y146.399 E28.57594
G1 X131.513 Y144.748 E28.69213
G1 X129.558 Y143.117 E28.81068
G1 X127.564 Y141.547 E28.92886
G1 X125.531 Y140.039 E29.04672
G1 X123.477 Y138.603 E29.16342
G1 X121.353 Y137.206 E29.2818
G1 X119.195 Y135.872 E29.39993
G1 X117.043 Y134.624 E29.51577
G1 X114.002 Y132.991 E29.6765
G1 X104.912 Y128.329 E30.15219
G1 X104.179 Y127.94 E30.19083
G1 X103.41 Y127.488 E30.23236
G1 X103.097 Y127.286 E30.24971
G1 X102.836 Y127.112 E30.26432
G1 X102.65 Y126.984 E30.27483
G1 X101.915 Y126.43 E30.31769
G1 X101 Y125.58 E30.37584
G1 X100.756 Y125.325 E30.39228
G1 X100.454 Y124.998 E30.413
