;FLAVOR:Marlin
;TIME:3931
;Filament used: 3.8663m
;Layer height: 0.28
;MINX:89
;MINY:109
;MINZ:0.28
;MAXX:211
;MAXY:191
;MAXZ:9.24
;Generated with Cura_SteamEngine 4.8.0
M140 S50
M105
M190 S50
M104 S200
M105
M109 S200
M82 ;absolute extrusion mode
M201 X500.00 Y500.00 Z100.00 E5000.00 ;Setup machine max acceleration
M203 X500.00 Y500.00 Z10.00 E50.00 ;Setup machine max feedrate
M204 P500.00 R1000.00 T500.00 ;Setup Print/Retract/Travel acceleration
M205 X8.00 Y8.00 Z0.40 E5.00 ;Setup Jerk
M220 S100 ;Reset Feedrate
M221 S100 ;Reset Flowrate

G28 ;Home

G92 E0 ;Reset Extruder
G1 Z2.0 F3000 ;Move Z Axis up
G1 X10.1 Y20 Z0.28 F5000.0 ;Move to start position
G1 X10.1 Y200.0 Z0.28 F1500.0 E15 ;Draw the first line
G1 X10.4 Y200.0 Z0.28 F5000.0 ;Move to side a little
G1 X10.4 Y20 Z0.28 F1500.0 E30 ;Draw the second line
G92 E0 ;Reset Extruder
G1 Z2.0 F3000 ;Move Z Axis up

G92 E0
G92 E0
G1 F2700 E-5
;LAYER_COUNT:33
;LAYER:0
M107
G0 F6000 X93.621 Y123.654 Z0.28
;TYPE:SKIRT
G1 F2700 E0
G1 F1200 X94.407 Y123.142 E0.04368
G1 X95.234 Y122.699 E0.08737
G1 X96.096 Y122.329 E0.13104
G1 X96.986 Y122.033 E0.17472
G1 X97.898 Y121.814 E0.21839
G1 X98.825 Y121.673 E0.26205
G1 X99.701 Y121.613 E0.30294
G1 X100.022 Y121.604 E0.31789
G1 X100.33 Y121.6 E0.33224
G1 X146.342 Y121.6 E2.47475
G1 X148.95 Y121.563 E2.5962
G1 X151.471 Y121.456 E2.71369
G1 X153.966 Y121.279 E2.83016
G1 X156.466 Y121.031 E2.94714
G1 X158.959 Y120.712 E3.06418
G1 X161.452 Y120.321 E3.18168
G1 X163.942 Y119.858 E3.29961
G1 X166.406 Y119.328 E3.41697
G1 X168.808 Y118.739 E3.53213
G1 X171.264 Y118.063 E3.65074
G1 X173.674 Y117.325 E3.76811
G1 X176.066 Y116.518 E3.88566
G1 X178.406 Y115.655 E4.00179
G1 X180.762 Y114.709 E4.12001
G1 X183.06 Y113.709 E4.23671
G1 X185.341 Y112.64 E4.35401
G1 X187.605 Y111.5 E4.47204
G1 X189.643 Y110.399 E4.5799
G1 X189.905 Y110.262 E4.59367
G1 X190.754 Y109.863 E4.63735
G1 X191.634 Y109.538 E4.68103
G1 X192.538 Y109.29 E4.72468
G1 X193.46 Y109.119 E4.76834
G1 X194.667 Y109.015 E4.82475
G1 X194.995 Y109.005 E4.84003
G1 X195.33 Y109 E4.85563
G1 X199.451 Y109.001 E5.04752
G1 X200.149 Y109.011 E5.08003
G1 X201.085 Y109.065 E5.12369
G1 X202.013 Y109.197 E5.16733
G1 X202.927 Y109.409 E5.21102
G1 X203.819 Y109.698 E5.25468
G1 X204.684 Y110.061 E5.29836
G1 X205.514 Y110.497 E5.34202
G1 X206.305 Y111.002 E5.38572
G1 X207.049 Y111.573 E5.42939
G1 X207.742 Y112.205 E5.47306
G1 X208.379 Y112.893 E5.51672
G1 X208.954 Y113.634 E5.5604
G1 X209.465 Y114.42 E5.60405
G1 X209.907 Y115.248 E5.64775
G1 X210.276 Y116.11 E5.69142
G1 X210.571 Y117 E5.73508
G1 X210.789 Y117.912 E5.77874
G1 X210.929 Y118.84 E5.82244
G1 X210.987 Y119.701 E5.86262
G1 X210.996 Y120.021 E5.87753
G1 X211 Y120.33 E5.89192
G1 X210.999 Y179.4 E8.64246
G1 X210.99 Y180.127 E8.67632
G1 X210.939 Y181.064 E8.72001
G1 X210.807 Y181.992 E8.76366
G1 X210.598 Y182.906 E8.80732
G1 X210.311 Y183.799 E8.851
G1 X209.949 Y184.665 E8.8947
G1 X209.515 Y185.496 E8.93836
G1 X209.011 Y186.287 E8.98203
G1 X208.442 Y187.032 E9.02568
G1 X207.811 Y187.727 E9.06939
G1 X207.124 Y188.365 E9.11305
G1 X206.385 Y188.942 E9.1567
G1 X205.599 Y189.454 E9.20038
G1 X204.773 Y189.897 E9.24403
G1 X203.911 Y190.269 E9.28774
G1 X203.022 Y190.565 E9.33137
G1 X202.11 Y190.785 E9.37506
G1 X201.183 Y190.926 E9.41872
G1 X200.299 Y190.987 E9.45998
G1 X199.978 Y190.996 E9.47493
G1 X199.67 Y191 E9.48928
G1 X195.551 Y190.999 E9.68108
G1 X194.848 Y190.989 E9.71381
G1 X193.911 Y190.936 E9.75751
G1 X192.983 Y190.803 E9.80117
G1 X192.069 Y190.591 E9.84486
G1 X191.177 Y190.303 E9.8885
G1 X190.312 Y189.939 E9.9322
G1 X189.784 Y189.673 E9.95973
G1 X188.777 Y189.13 E10.013
G1 X186.463 Y187.922 E10.13455
G1 X184.21 Y186.825 E10.25124
G1 X181.922 Y185.791 E10.36815
G1 X179.573 Y184.808 E10.48672
G1 X177.225 Y183.905 E10.60386
G1 X174.861 Y183.071 E10.72059
G1 X172.475 Y182.302 E10.83732
G1 X170.075 Y181.604 E10.9537
G1 X167.614 Y180.964 E11.07211
G1 X165.135 Y180.391 E11.19058
G1 X162.702 Y179.904 E11.30612
G1 X160.227 Y179.479 E11.42305
G1 X157.71 Y179.121 E11.54144
G1 X155.23 Y178.838 E11.65766
G1 X152.715 Y178.624 E11.7752
G1 X150.2 Y178.482 E11.89249
G1 X147.685 Y178.409 E12.00965
G1 X146.336 Y178.4 E12.07247
G1 X100.707 Y178.4 E14.19714
G1 X99.836 Y178.388 E14.23771
G1 X98.899 Y178.333 E14.28141
G1 X97.971 Y178.199 E14.32507
G1 X97.058 Y177.986 E14.36873
G1 X96.166 Y177.696 E14.4124
G1 X95.302 Y177.331 E14.45608
G1 X94.472 Y176.894 E14.49975
G1 X93.683 Y176.388 E14.5434
G1 X92.939 Y175.816 E14.5871
G1 X92.247 Y175.183 E14.63077
G1 X91.611 Y174.494 E14.67443
G1 X91.036 Y173.752 E14.71814
G1 X90.527 Y172.965 E14.76178
G1 X90.086 Y172.137 E14.80546
G1 X89.718 Y171.275 E14.84911
G1 X89.425 Y170.384 E14.89278
G1 X89.208 Y169.471 E14.93648
G1 X89.07 Y168.544 E14.98012
G1 X89.013 Y167.688 E15.02007
G1 X89.004 Y167.357 E15.03549
G1 X89 Y167.058 E15.04941
G1 X89.001 Y133.154 E16.62812
G1 X89.01 Y132.465 E16.66021
G1 X89.062 Y131.529 E16.70386
G1 X89.194 Y130.6 E16.74755
G1 X89.404 Y129.686 E16.79122
G1 X89.692 Y128.794 E16.83487
G1 X90.054 Y127.929 E16.87853
G1 X90.489 Y127.098 E16.92221
G1 X90.993 Y126.307 E16.96588
G1 X91.563 Y125.562 E17.00956
G1 X92.194 Y124.868 E17.05323
G1 X92.882 Y124.23 E17.09692
G1 X93.621 Y123.654 E17.14055
G0 F6000 X94.006 Y123.873
G1 F1200 X94.787 Y123.385 E17.18344
G1 X95.607 Y122.966 E17.22631
G1 X96.46 Y122.621 E17.26916
G1 X97.34 Y122.35 E17.31203
G1 X98.24 Y122.158 E17.35489
G1 X99.154 Y122.044 E17.39777
G1 X99.712 Y122.013 E17.4238
G1 X100.033 Y122.004 E17.43875
G1 X100.33 Y122 E17.45258
G1 X146.348 Y122 E19.59537
G1 X148.973 Y121.963 E19.71762
G1 X151.481 Y121.856 E19.8345
G1 X154.001 Y121.678 E19.95214
G1 X156.516 Y121.429 E20.06982
G1 X159.005 Y121.11 E20.18667
G1 X161.557 Y120.709 E20.30696
G1 X163.988 Y120.257 E20.42209
G1 X166.48 Y119.721 E20.54079
G1 X168.937 Y119.119 E20.65858
G1 X171.382 Y118.446 E20.77666
G1 X173.782 Y117.711 E20.89354
G1 X176.196 Y116.897 E21.01216
G1 X178.546 Y116.03 E21.1288
G1 X180.934 Y115.071 E21.24863
G1 X183.211 Y114.08 E21.36426
G1 X185.54 Y112.988 E21.48404
G1 X187.769 Y111.866 E21.60023
G1 X189.828 Y110.754 E21.7092
G1 X190.09 Y110.617 E21.72297
G1 X190.924 Y110.226 E21.76586
G1 X191.788 Y109.909 E21.80871
G1 X192.677 Y109.668 E21.8516
G1 X193.583 Y109.505 E21.89447
G1 X194.679 Y109.415 E21.94567
G1 X195.007 Y109.405 E21.96095
G1 X195.33 Y109.4 E21.97599
G1 X199.445 Y109.401 E22.1676
G1 X200.143 Y109.411 E22.20011
G1 X201.062 Y109.464 E22.24297
G1 X201.973 Y109.597 E22.28584
G1 X202.869 Y109.808 E22.32871
G1 X203.743 Y110.096 E22.37156
G1 X204.59 Y110.459 E22.41447
G1 X205.401 Y110.894 E22.45732
G1 X206.171 Y111.398 E22.50017
G1 X206.895 Y111.967 E22.54305
G1 X207.567 Y112.597 E22.58594
G1 X208.182 Y113.282 E22.62881
G1 X208.735 Y114.018 E22.67167
G1 X209.222 Y114.799 E22.71453
G1 X209.639 Y115.62 E22.75741
G1 X209.984 Y116.474 E22.8003
G1 X210.253 Y117.354 E22.84314
G1 X210.445 Y118.255 E22.88604
G1 X210.558 Y119.168 E22.92888
G1 X210.587 Y119.712 E22.95424
G1 X210.596 Y120.032 E22.96915
G1 X210.6 Y120.33 E22.98303
G1 X210.599 Y179.395 E25.73334
G1 X210.59 Y180.122 E25.7672
G1 X210.539 Y181.041 E25.81006
G1 X210.408 Y181.953 E25.85296
G1 X210.198 Y182.849 E25.89581
G1 X209.912 Y183.724 E25.93867
G1 X209.551 Y184.571 E25.98155
G1 X209.117 Y185.383 E26.02442
G1 X208.615 Y186.155 E26.0673
G1 X208.047 Y186.88 E26.11018
G1 X207.419 Y187.553 E26.15305
G1 X206.735 Y188.169 E26.19591
G1 X206 Y188.723 E26.23877
G1 X205.22 Y189.212 E26.28163
G1 X204.4 Y189.631 E26.32451
G1 X203.547 Y189.977 E26.36738
G1 X202.667 Y190.248 E26.41025
G1 X201.767 Y190.441 E26.45311
G1 X200.853 Y190.556 E26.49601
G1 X200.288 Y190.587 E26.52235
G1 X199.967 Y190.596 E26.53731
G1 X199.67 Y190.6 E26.55114
G1 X195.556 Y190.599 E26.7427
G1 X194.853 Y190.589 E26.77544
G1 X193.934 Y190.536 E26.81831
G1 X193.023 Y190.403 E26.86117
G1 X192.127 Y190.192 E26.90404
G1 X191.253 Y189.904 E26.94689
G1 X190.406 Y189.541 E26.9898
G1 X189.974 Y189.32 E27.01239
G1 X189.002 Y188.796 E27.06381
G1 X186.644 Y187.565 E27.18767
G1 X184.4 Y186.472 E27.3039
G1 X182.075 Y185.422 E27.42269
G1 X179.693 Y184.425 E27.54293
G1 X177.398 Y183.542 E27.65743
G1 X175.012 Y182.7 E27.77524
G1 X172.571 Y181.914 E27.89465
G1 X170.182 Y181.219 E28.01051
G1 X167.69 Y180.57 E28.13042
G1 X165.238 Y180.004 E28.24759
G1 X162.77 Y179.51 E28.36479
G1 X160.285 Y179.084 E28.48219
G1 X157.775 Y178.726 E28.60025
G1 X155.273 Y178.441 E28.71751
G1 X152.735 Y178.225 E28.83612
G1 X150.235 Y178.083 E28.95272
G1 X147.652 Y178.009 E29.07304
G1 X146.339 Y178 E29.13418
G1 X100.707 Y178 E31.259
G1 X99.842 Y177.988 E31.29928
G1 X98.923 Y177.933 E31.34215
G1 X98.012 Y177.799 E31.38502
G1 X97.116 Y177.587 E31.4279
G1 X96.242 Y177.297 E31.47078
G1 X95.397 Y176.933 E31.51362
G1 X94.586 Y176.497 E31.55649
G1 X93.816 Y175.992 E31.59937
G1 X93.093 Y175.422 E31.64224
G1 X92.422 Y174.792 E31.6851
G1 X91.808 Y174.105 E31.728
G1 X91.257 Y173.368 E31.77085
G1 X90.771 Y172.586 E31.81372
G1 X90.355 Y171.765 E31.85658
G1 X90.011 Y170.911 E31.89945
G1 X89.743 Y170.03 E31.94233
G1 X89.553 Y169.129 E31.98521
G1 X89.441 Y168.216 E32.02804
G1 X89.413 Y167.677 E32.05317
G1 X89.404 Y167.346 E32.06859
G1 X89.4 Y167.058 E32.082
G1 X89.401 Y133.16 E33.66044
G1 X89.41 Y132.471 E33.69252
G1 X89.462 Y131.551 E33.73543
G1 X89.593 Y130.64 E33.77828
G1 X89.804 Y129.744 E33.82115
G1 X90.091 Y128.869 E33.86403
G1 X90.453 Y128.023 E33.90687
G1 X90.887 Y127.211 E33.94975
G1 X91.389 Y126.439 E33.99263
G1 X91.957 Y125.715 E34.03547
G1 X92.586 Y125.042 E34.07837
G1 X93.271 Y124.427 E34.12123
G1 X94.006 Y123.873 E34.16409
G0 F6000 X94.39 Y124.097
G1 F1200 X95.164 Y123.633 E34.20611
G1 X95.977 Y123.24 E34.24816
G1 X96.822 Y122.92 E34.29023
G1 X97.692 Y122.676 E34.33231
G1 X98.579 Y122.51 E34.37433
G1 X99.723 Y122.413 E34.42779
G1 X100.044 Y122.404 E34.44274
G1 X100.33 Y122.4 E34.45606
G1 X146.354 Y122.4 E36.59913
G1 X148.96 Y122.363 E36.72049
G1 X151.525 Y122.254 E36.84003
G1 X154.032 Y122.076 E36.95706
G1 X156.573 Y121.825 E37.07596
G1 X159.081 Y121.504 E37.1937
G1 X161.586 Y121.11 E37.31177
G1 X164.073 Y120.648 E37.42956
G1 X166.587 Y120.107 E37.5493
G1 X169.033 Y119.508 E37.66656
G1 X171.477 Y118.835 E37.7846
G1 X173.912 Y118.09 E37.90317
G1 X176.314 Y117.279 E38.02122
G1 X178.727 Y116.389 E38.14098
G1 X181.034 Y115.463 E38.25674
G1 X183.405 Y114.431 E38.37714
G1 X185.711 Y113.35 E38.49573
G1 X187.974 Y112.21 E38.61372
G1 X190.014 Y111.108 E38.72169
G1 X190.276 Y110.971 E38.73546
G1 X191.094 Y110.589 E38.77749
G1 X191.942 Y110.28 E38.81952
G1 X192.815 Y110.047 E38.86159
G1 X193.705 Y109.893 E38.90365
G1 X194.691 Y109.815 E38.94971
G1 X195.019 Y109.805 E38.96499
G1 X195.33 Y109.8 E38.97947
G1 X199.439 Y109.801 E39.1708
G1 X200.137 Y109.811 E39.20331
G1 X201.039 Y109.864 E39.24538
G1 X201.932 Y109.996 E39.28742
G1 X202.81 Y110.207 E39.32946
G1 X203.666 Y110.495 E39.37152
G1 X204.493 Y110.857 E39.41355
G1 X205.285 Y111.292 E39.45563
G1 X206.036 Y111.794 E39.49769
G1 X206.739 Y112.361 E39.53975
G1 X207.389 Y112.988 E39.5818
G1 X207.981 Y113.67 E39.62385
G1 X208.511 Y114.401 E39.6659
G1 X208.973 Y115.177 E39.70795
G1 X209.366 Y115.99 E39.75
G1 X209.684 Y116.835 E39.79204
G1 X209.927 Y117.705 E39.8341
G1 X210.092 Y118.593 E39.87615
G1 X210.187 Y119.723 E39.92896
G1 X210.196 Y120.043 E39.94386
G1 X210.2 Y120.33 E39.95723
G1 X210.199 Y179.39 E42.70731
G1 X210.19 Y180.117 E42.74117
G1 X210.139 Y181.019 E42.78323
G1 X210.008 Y181.913 E42.82531
G1 X209.799 Y182.791 E42.86733
G1 X209.513 Y183.648 E42.9094
G1 X209.152 Y184.476 E42.95146
G1 X208.72 Y185.268 E42.99347
G1 X208.219 Y186.02 E43.03555
G1 X207.653 Y186.724 E43.07761
G1 X207.028 Y187.375 E43.11963
G1 X206.347 Y187.969 E43.16171
G1 X205.616 Y188.5 E43.20378
G1 X204.842 Y188.964 E43.2458
G1 X204.029 Y189.358 E43.28787
G1 X203.185 Y189.678 E43.3299
G1 X202.315 Y189.923 E43.37198
G1 X201.428 Y190.089 E43.414
G1 X200.277 Y190.187 E43.46779
G1 X199.956 Y190.196 E43.48275
G1 X199.67 Y190.2 E43.49606
G1 X195.562 Y190.199 E43.68735
G1 X194.859 Y190.189 E43.72009
G1 X193.957 Y190.136 E43.76216
G1 X193.064 Y190.004 E43.80419
G1 X192.186 Y189.793 E43.84624
G1 X191.33 Y189.505 E43.8883
G1 X190.164 Y188.968 E43.94807
G1 X189.17 Y188.432 E44.00066
G1 X186.825 Y187.208 E44.12383
G1 X184.561 Y186.106 E44.24108
G1 X182.245 Y185.059 E44.35943
G1 X179.866 Y184.063 E44.47952
G1 X177.526 Y183.164 E44.59624
G1 X175.12 Y182.314 E44.71506
G1 X172.701 Y181.535 E44.8334
G1 X170.257 Y180.824 E44.95192
G1 X167.809 Y180.187 E45.0697
G1 X165.335 Y179.616 E45.18793
G1 X162.851 Y179.119 E45.30589
G1 X160.332 Y178.686 E45.42491
G1 X157.845 Y178.332 E45.54188
G1 X155.281 Y178.04 E45.66204
G1 X152.793 Y177.828 E45.77831
G1 X150.232 Y177.683 E45.89775
G1 X147.667 Y177.609 E46.01724
G1 X146.342 Y177.6 E46.07894
G1 X100.707 Y177.6 E48.2039
G1 X99.848 Y177.588 E48.2439
G1 X98.947 Y177.534 E48.28593
G1 X98.054 Y177.4 E48.32798
G1 X97.176 Y177.188 E48.37004
G1 X96.32 Y176.899 E48.4121
G1 X95.494 Y176.535 E48.45414
G1 X94.702 Y176.1 E48.49621
G1 X93.953 Y175.596 E48.53825
G1 X93.25 Y175.028 E48.58033
G1 X92.601 Y174.401 E48.62235
G1 X92.01 Y173.718 E48.66441
G1 X91.481 Y172.986 E48.70646
G1 X91.02 Y172.209 E48.74853
G1 X90.629 Y171.395 E48.79058
G1 X90.311 Y170.55 E48.83262
G1 X90.07 Y169.68 E48.87466
G1 X89.906 Y168.792 E48.91671
G1 X89.813 Y167.666 E48.96932
G1 X89.804 Y167.335 E48.98473
G1 X89.8 Y167.058 E48.99763
G1 X89.801 Y133.165 E50.57583
G1 X89.81 Y132.476 E50.60792
G1 X89.862 Y131.574 E50.64999
G1 X89.993 Y130.681 E50.69202
G1 X90.203 Y129.802 E50.7341
G1 X90.489 Y128.946 E50.77612
G1 X90.851 Y128.118 E50.8182
G1 X91.284 Y127.326 E50.86023
G1 X91.785 Y126.575 E50.90227
G1 X92.351 Y125.871 E50.94433
G1 X92.977 Y125.22 E50.98639
G1 X93.659 Y124.627 E51.02847
G1 X94.39 Y124.097 E51.07051
G1 F2700 E46.07051
;MESH:Mount Side.stl
G0 F6000 X109.326 Y141.924
G0 X108.287 Y140.887
G0 X108.002 Y142.065
G0 X107.931 Y142.6
G0 X108.002 Y143.135
G0 X108.209 Y143.633
G0 X108.537 Y144.063
G0 X108.967 Y144.391
G0 X109.37 Y144.558
G0 X110.577 Y144.755
;TYPE:WALL-INNER
G1 F2700 E51.07051
G1 F1200 X111.116 Y144.531 E51.09769
G1 X111.577 Y144.177 E51.12476
G1 X111.931 Y143.715 E51.15186
G1 X112.155 Y143.178 E51.17895
G1 X112.23 Y142.6 E51.20609
G1 X112.155 Y142.023 E51.23319
G1 X111.931 Y141.484 E51.26036
G1 X111.577 Y141.023 E51.28743
G1 X111.116 Y140.669 E51.31449
G1 X110.577 Y140.445 E51.34167
G1 X110 Y140.37 E51.36877
G1 X109.422 Y140.445 E51.39591
G1 X108.885 Y140.669 E51.423
G1 X108.423 Y141.023 E51.4501
G1 X108.069 Y141.484 E51.47717
G1 X107.845 Y142.023 E51.50435
G1 X107.77 Y142.6 E51.53144
G1 X107.845 Y143.178 E51.55858
G1 X108.069 Y143.715 E51.58567
G1 X108.423 Y144.177 E51.61277
G1 X108.885 Y144.531 E51.63988
G1 X109.422 Y144.755 E51.66697
G1 X110 Y144.83 E51.69411
G1 X110.577 Y144.755 E51.7212
G0 F6000 X110.473 Y144.365
;TYPE:WALL-OUTER
G1 F1200 X110.914 Y144.182 E51.74343
G1 X111.292 Y143.892 E51.76562
G1 X111.582 Y143.513 E51.78784
G1 X111.765 Y143.073 E51.81003
G1 X111.827 Y142.6 E51.83224
G1 X111.765 Y142.127 E51.85446
G1 X111.582 Y141.686 E51.87669
G1 X111.292 Y141.308 E51.89887
G1 X110.914 Y141.018 E51.92106
G1 X110.473 Y140.835 E51.94329
G1 X110 Y140.773 E51.9655
G1 X109.527 Y140.835 E51.98772
G1 X109.087 Y141.018 E52.00991
G1 X108.708 Y141.308 E52.03213
G1 X108.418 Y141.686 E52.05431
G1 X108.235 Y142.127 E52.07655
G1 X108.173 Y142.6 E52.09876
G1 X108.235 Y143.073 E52.12097
G1 X108.418 Y143.513 E52.14316
G1 X108.708 Y143.892 E52.16538
G1 X109.087 Y144.182 E52.18761
G1 X109.527 Y144.365 E52.20979
G1 X110 Y144.427 E52.23201
G1 X110.473 Y144.365 E52.25422
