;FLAVOR:Marlin
;TIME:10644
;Filament used: 7.61769m
;Layer height: 0.28
;MINX:94.75
;MINY:119.5
;MINZ:0.28
;MAXX:205.25
;MAXY:180.5
;MAXZ:59.92
;Generated with Cura_SteamEngine 4.8.0
M140 S50
M105
M190 S50
M104 S200
M105
M109 S200
M82 ;absolute extrusion mode
M201 X500.00 Y500.00 Z100.00 E5000.00 ;Setup machine max acceleration
M203 X500.00 Y500.00 Z10.00 E50.00 ;Setup machine max feedrate
M204 P500.00 R1000.00 T500.00 ;Setup Print/Retract/Travel acceleration
M205 X8.00 Y8.00 Z0.40 E5.00 ;Setup Jerk
M220 S100 ;Reset Feedrate
M221 S100 ;Reset Flowrate

G28 ;Home

G92 E0 ;Reset Extruder
G1 Z2.0 F3000 ;Move Z Axis up
G1 X10.1 Y20 Z0.28 F5000.0 ;Move to start position
G1 X10.1 Y200.0 Z0.28 F1500.0 E15 ;Draw the first line
G1 X10.4 Y200.0 Z0.28 F5000.0 ;Move to side a little
G1 X10.4 Y20 Z0.28 F1500.0 E30 ;Draw the second line
G92 E0 ;Reset Extruder
G1 Z2.0 F3000 ;Move Z Axis up

G92 E0
G92 E0
G1 F2700 E-5
;LAYER_COUNT:214
;LAYER:0
M107
G0 F6000 X98.649 Y122.116 Z0.28
;TYPE:SKIRT
G1 F2700 E0
G1 F1200 X99.39 Y121.541 E0.04367
G1 X100.177 Y121.031 E0.08734
G1 X101.005 Y120.59 E0.13102
G1 X101.867 Y120.221 E0.17469
G1 X102.758 Y119.927 E0.21837
G1 X103.67 Y119.709 E0.26204
G1 X104.597 Y119.571 E0.30568
G1 X105.451 Y119.513 E0.34554
G1 X105.771 Y119.504 E0.36044
G1 X106.08 Y119.5 E0.37483
G1 X193.543 Y119.5 E4.44748
G1 X194.399 Y119.511 E4.48734
G1 X195.335 Y119.565 E4.53099
G1 X196.263 Y119.697 E4.57464
G1 X197.177 Y119.909 E4.61833
G1 X198.069 Y120.198 E4.66199
G1 X198.934 Y120.561 E4.70567
G1 X199.764 Y120.997 E4.74933
G1 X200.555 Y121.502 E4.79303
G1 X201.299 Y122.073 E4.8367
G1 X201.992 Y122.705 E4.88037
G1 X202.629 Y123.393 E4.92403
G1 X203.204 Y124.134 E4.9677
G1 X203.715 Y124.92 E5.01136
G1 X204.157 Y125.748 E5.05506
G1 X204.526 Y126.61 E5.09872
G1 X204.821 Y127.5 E5.14238
G1 X205.039 Y128.412 E5.18605
G1 X205.179 Y129.34 E5.22975
G1 X205.237 Y130.201 E5.26993
G1 X205.246 Y130.521 E5.28484
G1 X205.25 Y130.83 E5.29922
G1 X205.249 Y167.45 E7.00441
G1 X205.239 Y168.152 E7.0371
G1 X205.186 Y169.088 E7.08075
G1 X205.053 Y170.016 E7.1244
G1 X204.841 Y170.93 E7.16809
G1 X204.553 Y171.823 E7.21178
G1 X204.189 Y172.687 E7.25544
G1 X203.753 Y173.518 E7.29914
G1 X203.248 Y174.308 E7.3428
G1 X202.678 Y175.052 E7.38644
G1 X202.305 Y175.476 E7.41273
G1 X202.164 Y175.628 E7.42239
G1 X201.962 Y175.84 E7.43602
G1 X201.781 Y176.025 E7.44808
G1 X200.896 Y176.908 E7.50629
G1 X200.402 Y177.387 E7.53833
G1 X199.702 Y178.011 E7.58199
G1 X198.951 Y178.572 E7.62564
G1 X198.154 Y179.068 E7.66936
G1 X197.319 Y179.494 E7.713
G1 X196.45 Y179.847 E7.75668
G1 X195.554 Y180.125 E7.80036
G1 X194.638 Y180.326 E7.84403
G1 X193.708 Y180.448 E7.88771
G1 X193.116 Y180.484 E7.91532
G1 X192.731 Y180.494 E7.93326
G1 X192.188 Y180.5 E7.95854
G1 X107.8 Y180.499 E11.888
G1 X107.098 Y180.489 E11.92069
G1 X106.162 Y180.436 E11.96435
G1 X105.234 Y180.303 E12.008
G1 X104.32 Y180.091 E12.05169
G1 X103.427 Y179.803 E12.09538
G1 X102.563 Y179.439 E12.13904
G1 X101.732 Y179.003 E12.18273
G1 X100.942 Y178.498 E12.22639
G1 X100.198 Y177.928 E12.27004
G1 X99.77 Y177.551 E12.29659
G1 X99.616 Y177.408 E12.30638
G1 X99.4 Y177.202 E12.32028
G1 X99.125 Y176.931 E12.33826
G1 X98.324 Y176.129 E12.39104
G1 X97.853 Y175.642 E12.42258
G1 X97.23 Y174.941 E12.46625
G1 X96.67 Y174.189 E12.50991
G1 X96.175 Y173.392 E12.5536
G1 X95.75 Y172.556 E12.59727
G1 X95.398 Y171.687 E12.64093
G1 X95.121 Y170.791 E12.6846
G1 X94.922 Y169.874 E12.72829
G1 X94.801 Y168.944 E12.77196
G1 X94.766 Y168.366 E12.79892
G1 X94.756 Y167.981 E12.81686
G1 X94.75 Y167.438 E12.84214
G1 X94.751 Y131.009 E14.53843
G1 X94.761 Y130.344 E14.5694
G1 X94.815 Y129.407 E14.6131
G1 X94.949 Y128.479 E14.65676
G1 X95.161 Y127.565 E14.70045
G1 X95.45 Y126.673 E14.74411
G1 X95.815 Y125.809 E14.78778
G1 X96.251 Y124.979 E14.83144
G1 X96.757 Y124.189 E14.87512
G1 X97.328 Y123.445 E14.9188
G1 X97.96 Y122.752 E14.96247
G1 X98.649 Y122.116 E15.00613
G0 F6000 X99.038 Y122.313
G1 F1200 X99.774 Y121.761 E15.04897
G1 X100.556 Y121.274 E15.09187
G1 X101.377 Y120.858 E15.13472
G1 X102.231 Y120.514 E15.17759
G1 X103.111 Y120.245 E15.22044
G1 X104.012 Y120.054 E15.26333
G1 X104.926 Y119.942 E15.30621
G1 X105.462 Y119.913 E15.3312
G1 X105.782 Y119.904 E15.34611
G1 X106.08 Y119.9 E15.35998
G1 X193.543 Y119.9 E19.43263
G1 X194.393 Y119.911 E19.47221
G1 X195.312 Y119.964 E19.51507
G1 X196.223 Y120.097 E19.55794
G1 X197.119 Y120.308 E19.60081
G1 X197.993 Y120.596 E19.64366
G1 X198.84 Y120.959 E19.68657
G1 X199.651 Y121.394 E19.72942
G1 X200.421 Y121.898 E19.77227
G1 X201.145 Y122.467 E19.81515
G1 X201.817 Y123.097 E19.85804
G1 X202.432 Y123.782 E19.90091
G1 X202.985 Y124.518 E19.94377
G1 X203.472 Y125.299 E19.98663
G1 X203.889 Y126.12 E20.02951
G1 X204.234 Y126.974 E20.0724
G1 X204.503 Y127.854 E20.11525
G1 X204.695 Y128.755 E20.15814
G1 X204.808 Y129.668 E20.20098
G1 X204.837 Y130.212 E20.22635
G1 X204.846 Y130.532 E20.24125
G1 X204.85 Y130.83 E20.25513
G1 X204.849 Y167.444 E21.96003
G1 X204.839 Y168.146 E21.99272
G1 X204.786 Y169.065 E22.03559
G1 X204.653 Y169.976 E22.07846
G1 X204.442 Y170.872 E22.12132
G1 X204.154 Y171.747 E22.16421
G1 X203.791 Y172.593 E22.20708
G1 X203.356 Y173.404 E22.24993
G1 X202.852 Y174.175 E22.29282
G1 X202.011 Y175.204 E22.3547
G1 X201.87 Y175.356 E22.36436
G1 X201.676 Y175.56 E22.37747
G1 X201.495 Y175.745 E22.38952
G1 X200.618 Y176.621 E22.44724
G1 X200.124 Y177.1 E22.47928
G1 X199.436 Y177.712 E22.52216
G1 X198.697 Y178.261 E22.56502
G1 X197.914 Y178.745 E22.60789
G1 X197.091 Y179.158 E22.65076
G1 X196.236 Y179.499 E22.69362
G1 X195.354 Y179.764 E22.73651
G1 X194.453 Y179.952 E22.77937
G1 X193.103 Y180.084 E22.84253
G1 X192.727 Y180.094 E22.86004
G1 X192.188 Y180.1 E22.88514
G1 X107.806 Y180.099 E26.81432
G1 X107.104 Y180.089 E26.84701
G1 X106.185 Y180.036 E26.88988
G1 X105.274 Y179.903 E26.93275
G1 X104.378 Y179.692 E26.97561
G1 X103.503 Y179.404 E27.0185
G1 X102.657 Y179.041 E27.06137
G1 X101.846 Y178.606 E27.10422
G1 X101.075 Y178.102 E27.14711
G1 X100.042 Y177.258 E27.20923
G1 X99.888 Y177.115 E27.21901
G1 X99.68 Y176.916 E27.23242
G1 X99.407 Y176.648 E27.25023
G1 X98.741 Y175.983 E27.29405
G1 X98.141 Y175.364 E27.3342
G1 X97.53 Y174.675 E27.37708
G1 X96.981 Y173.936 E27.41994
G1 X96.499 Y173.152 E27.4628
G1 X96.086 Y172.329 E27.50567
G1 X95.747 Y171.473 E27.54855
G1 X95.483 Y170.591 E27.59142
G1 X95.296 Y169.689 E27.63431
G1 X95.166 Y168.353 E27.69681
G1 X95.156 Y167.977 E27.71433
G1 X95.15 Y167.438 E27.73943
G1 X95.151 Y131.015 E29.43543
G1 X95.161 Y130.35 E29.4664
G1 X95.215 Y129.431 E29.50927
G1 X95.348 Y128.52 E29.55214
G1 X95.56 Y127.624 E29.59501
G1 X95.849 Y126.749 E29.63792
G1 X96.213 Y125.904 E29.68076
G1 X96.648 Y125.093 E29.72362
G1 X97.153 Y124.322 E29.76653
G1 X97.722 Y123.599 E29.80937
G1 X98.352 Y122.927 E29.85227
G1 X99.038 Y122.313 E29.89513
G0 F6000 X99.425 Y122.514
G1 F1200 X100.157 Y121.985 E29.93719
G1 X100.933 Y121.523 E29.97924
G1 X101.747 Y121.132 E30.02129
G1 X102.592 Y120.813 E30.06335
G1 X103.462 Y120.571 E30.1054
G1 X104.35 Y120.407 E30.14745
G1 X105.473 Y120.313 E30.19992
G1 X105.793 Y120.304 E30.21483
G1 X106.08 Y120.3 E30.22819
G1 X193.543 Y120.3 E34.30083
G1 X194.387 Y120.311 E34.34014
G1 X195.289 Y120.364 E34.38221
G1 X196.182 Y120.496 E34.42425
G1 X197.06 Y120.707 E34.46629
G1 X197.916 Y120.995 E34.50835
G1 X198.743 Y121.357 E34.55038
G1 X199.535 Y121.792 E34.59246
G1 X200.286 Y122.294 E34.63452
G1 X200.989 Y122.861 E34.67658
G1 X201.639 Y123.488 E34.71863
G1 X202.231 Y124.17 E34.76068
G1 X202.761 Y124.901 E34.80273
G1 X203.223 Y125.677 E34.84478
G1 X203.616 Y126.49 E34.88683
G1 X203.934 Y127.335 E34.92887
G1 X204.177 Y128.205 E34.97093
G1 X204.342 Y129.093 E35.01298
G1 X204.437 Y130.223 E35.06579
G1 X204.446 Y130.543 E35.08069
G1 X204.45 Y130.83 E35.09406
G1 X204.449 Y167.438 E36.79868
G1 X204.439 Y168.14 E36.83137
G1 X204.386 Y169.042 E36.87345
G1 X204.254 Y169.935 E36.91548
G1 X204.043 Y170.813 E36.95753
G1 X203.755 Y171.669 E36.99958
G1 X203.393 Y172.497 E37.04166
G1 X202.959 Y173.289 E37.08371
G1 X202.456 Y174.039 E37.12576
G1 X201.718 Y174.932 E37.17971
G1 X201.577 Y175.084 E37.18936
G1 X201.39 Y175.28 E37.20198
G1 X201.209 Y175.465 E37.21403
G1 X200.339 Y176.334 E37.27129
G1 X199.845 Y176.813 E37.30333
G1 X199.17 Y177.412 E37.34535
G1 X198.444 Y177.949 E37.3874
G1 X197.673 Y178.42 E37.42947
G1 X196.864 Y178.821 E37.47151
G1 X196.023 Y179.149 E37.51354
G1 X195.155 Y179.401 E37.55563
G1 X194.269 Y179.575 E37.59767
G1 X193.089 Y179.684 E37.65285
G1 X192.722 Y179.694 E37.66995
G1 X192.188 Y179.7 E37.69482
G1 X107.812 Y179.699 E41.62372
G1 X107.11 Y179.689 E41.65641
G1 X106.208 Y179.636 E41.69848
G1 X105.315 Y179.504 E41.74051
G1 X104.437 Y179.293 E41.78256
G1 X103.581 Y179.005 E41.82462
G1 X102.753 Y178.643 E41.8667
G1 X101.961 Y178.209 E41.90875
G1 X101.211 Y177.706 E41.9508
G1 X100.314 Y176.964 E42.005
G1 X99.96 Y176.631 E42.02764
G1 X99.69 Y176.365 E42.04528
G1 X98.899 Y175.573 E42.09741
G1 X98.428 Y175.086 E42.12895
G1 X97.83 Y174.41 E42.17098
G1 X97.293 Y173.683 E42.21307
G1 X96.823 Y172.912 E42.25511
G1 X96.423 Y172.102 E42.29718
G1 X96.097 Y171.26 E42.33922
G1 X95.846 Y170.393 E42.38125
G1 X95.673 Y169.506 E42.42333
G1 X95.566 Y168.339 E42.4779
G1 X95.556 Y167.972 E42.49499
G1 X95.55 Y167.438 E42.51986
G1 X95.551 Y131.021 E44.21559
G1 X95.561 Y130.356 E44.24656
G1 X95.615 Y129.454 E44.28863
G1 X95.748 Y128.561 E44.33067
G1 X95.959 Y127.683 E44.37272
G1 X96.248 Y126.827 E44.41479
G1 X96.611 Y126 E44.45684
G1 X97.045 Y125.209 E44.49886
G1 X97.548 Y124.458 E44.54095
G1 X98.116 Y123.756 E44.58299
G1 X98.743 Y123.106 E44.62505
G1 X99.425 Y122.514 E44.6671
G1 F2700 E39.6671
;MESH:mag_well-cut.stl
G0 F6000 X106.17 Y129.835
G0 X106.17 Y130.92
G0 X148.847 Y131.301
G0 X147.149 Y133.304
G0 X147.473 Y134.614
G0 X147.694 Y135.194
G0 X148.045 Y135.702
G0 X148.508 Y136.113
G0 X149.057 Y136.4
G0 X149.658 Y136.549
G0 X150.274 Y136.549
G0 X150.878 Y136.4
G0 X151.423 Y136.113
G0 X151.888 Y135.703
G0 X152.794 Y134.59
G0 X152.138 Y132.076
G0 X151.086 Y131.301
G0 X178.914 Y131.301
G0 X177.216 Y133.306
G0 X177.797 Y135.662
G0 X179.705 Y136.71
;TYPE:WALL-INNER
G1 F2700 E44.6671
G1 F1200 X180.363 Y136.71 E44.69774
G1 X181.001 Y136.552 E44.72834
G1 X181.585 Y136.247 E44.75902
G1 X182.077 Y135.81 E44.78966
G1 X182.45 Y135.269 E44.82026
G1 X182.684 Y134.654 E44.8509
G1 X182.763 Y134 E44.88158
G1 X182.684 Y133.346 E44.91225
G1 X182.45 Y132.731 E44.94289
G1 X182.077 Y132.19 E44.97349
G1 X181.585 Y131.753 E45.00413
G1 X181.092 Y131.495 E45.03004
G1 X181.001 Y131.448 E45.03481
G1 X180.363 Y131.29 E45.06541
G1 X179.705 Y131.29 E45.09605
G1 X179.065 Y131.448 E45.12675
G1 X178.974 Y131.495 E45.13152
G1 X178.484 Y131.753 E45.1573
G1 X177.991 Y132.19 E45.18798
G1 X177.617 Y132.731 E45.21861
G1 X177.383 Y133.347 E45.24929
G1 X177.305 Y134 E45.27991
G1 X177.383 Y134.653 E45.31053
G1 X177.617 Y135.269 E45.34122
G1 X177.991 Y135.81 E45.37184
G1 X178.484 Y136.247 E45.40252
G1 X179.065 Y136.552 E45.43307
G1 X179.705 Y136.71 E45.46377
G0 F6000 X179.754 Y136.31
;TYPE:WALL-OUTER
G1 F1200 X180.314 Y136.31 E45.48985
G1 X180.858 Y136.175 E45.51594
G1 X181.356 Y135.915 E45.5421
G1 X181.775 Y135.543 E45.56819
G1 X182.093 Y135.082 E45.59427
G1 X182.293 Y134.557 E45.62043
G1 X182.36 Y134 E45.64656
G1 X182.293 Y133.443 E45.67268
G1 X182.093 Y132.918 E45.69884
G1 X181.775 Y132.457 E45.72492
G1 X181.356 Y132.085 E45.75101
G1 X180.858 Y131.825 E45.77717
G1 X180.314 Y131.69 E45.80327
G1 X179.754 Y131.69 E45.82934
G1 X179.208 Y131.825 E45.85553
G1 X178.713 Y132.085 E45.88157
G1 X178.292 Y132.457 E45.90773
G1 X177.974 Y132.918 E45.9338
G1 X177.774 Y133.443 E45.95996
G1 X177.708 Y134 E45.98608
G1 X177.774 Y134.557 E46.0122
G1 X177.974 Y135.082 E46.03836
G1 X178.292 Y135.543 E46.06444
G1 X178.713 Y135.915 E46.0906
G1 X179.208 Y136.175 E46.11663
G1 X179.754 Y136.31 E46.14282
G0 F6000 X179.701 Y136.746
G1 F2700 E41.14282
G0 F6000 X177.862 Y135.924
G0 X177.216 Y133.306
G0 X178.914 Y131.301
G0 X151.086 Y131.301
G0 X152.784 Y133.306
G0 X152.138 Y135.924
G0 X151.828 Y136.146
G0 X149.637 Y136.71
;TYPE:WALL-INNER
G1 F2700 E46.14282
G1 F1200 X150.295 Y136.71 E46.17346
G1 X150.935 Y136.552 E46.20416
G1 X151.516 Y136.247 E46.23471
G1 X152.009 Y135.81 E46.26539
G1 X152.383 Y135.269 E46.29601
G1 X152.617 Y134.653 E46.3267
G1 X152.695 Y134 E46.35732
G1 X152.617 Y133.347 E46.38794
G1 X152.383 Y132.731 E46.41863
G1 X152.009 Y132.19 E46.44925
G1 X151.516 Y131.753 E46.47993
G1 X151.026 Y131.495 E46.50571
G1 X150.935 Y131.448 E46.51048
G1 X150.295 Y131.29 E46.54118
G1 X149.637 Y131.29 E46.57182
G1 X148.999 Y131.448 E46.60242
G1 X148.908 Y131.495 E46.60719
G1 X148.415 Y131.753 E46.6331
G1 X147.923 Y132.19 E46.66374
G1 X147.55 Y132.731 E46.69434
G1 X147.316 Y133.346 E46.72498
G1 X147.237 Y134 E46.75566
G1 X147.316 Y134.654 E46.78633
G1 X147.55 Y135.269 E46.81697
G1 X147.923 Y135.81 E46.84757
G1 X148.415 Y136.247 E46.87821
G1 X148.999 Y136.552 E46.90889
G1 X149.637 Y136.71 E46.93949
G0 F6000 X149.686 Y136.31
;TYPE:WALL-OUTER
G1 F1200 X150.246 Y136.31 E46.96557
G1 X150.792 Y136.175 E46.99176
G1 X151.287 Y135.915 E47.01779
G1 X151.708 Y135.543 E47.04395
G1 X152.026 Y135.082 E47.07003
G1 X152.226 Y134.557 E47.09619
G1 X152.292 Y134 E47.12231
G1 X152.226 Y133.443 E47.14843
G1 X152.026 Y132.918 E47.17459
G1 X151.708 Y132.457 E47.20067
G1 X151.287 Y132.085 E47.22683
G1 X150.792 Y131.825 E47.25286
G1 X150.246 Y131.69 E47.27905
G1 X149.686 Y131.69 E47.30513
G1 X149.142 Y131.825 E47.33123
G1 X148.644 Y132.085 E47.35739
G1 X148.225 Y132.457 E47.38348
G1 X147.907 Y132.918 E47.40955
G1 X147.707 Y133.443 E47.43571
G1 X147.64 Y134 E47.46184
G1 X147.707 Y134.557 E47.48796
G1 X147.907 Y135.082 E47.51412
G1 X148.225 Y135.543 E47.5402
G1 X148.644 Y135.915 E47.56629
G1 X149.142 Y136.175 E47.59245
G1 X149.686 Y136.31 E47.61855
G0 F6000 X149.633 Y136.746
G1 F2700 E42.61855
G0 F6000 X147.794 Y135.924
G0 X147.149 Y133.304
G0 X148.847 Y131.301
G0 X121.086 Y131.301
G0 X122.784 Y133.306
G0 X122.203 Y135.662
G0 X120.295 Y136.71
;TYPE:WALL-INNER
G1 F2700 E47.61855
G1 F1200 X120.935 Y136.552 E47.64924
G1 X121.516 Y136.247 E47.6798
G1 X122.009 Y135.81 E47.71047
G1 X122.383 Y135.269 E47.7411
G1 X122.617 Y134.653 E47.77178
G1 X122.695 Y134 E47.8024
G1 X122.617 Y133.347 E47.83303
G1 X122.383 Y132.731 E47.86371
G1 X122.009 Y132.19 E47.89433
G1 X121.516 Y131.753 E47.92501
G1 X121.026 Y131.495 E47.9508
G1 X120.935 Y131.448 E47.95557
G1 X120.295 Y131.29 E47.98626
G1 X119.637 Y131.29 E48.0169
G1 X118.999 Y131.448 E48.04751
G1 X118.908 Y131.495 E48.05228
G1 X118.415 Y131.753 E48.07819
G1 X117.923 Y132.19 E48.10883
G1 X117.55 Y132.731 E48.13943
G1 X117.316 Y133.346 E48.17007
G1 X117.237 Y134 E48.20074
G1 X117.316 Y134.654 E48.23141
G1 X117.55 Y135.269 E48.26205
G1 X117.923 Y135.81 E48.29265
G1 X118.415 Y136.247 E48.32329
G1 X118.999 Y136.552 E48.35397
G1 X119.637 Y136.71 E48.38458
G1 X120.295 Y136.71 E48.41522
G0 F6000 X120.246 Y136.31
;TYPE:WALL-OUTER
G1 F1200 X120.792 Y136.175 E48.44141
G1 X121.287 Y135.915 E48.46744
G1 X121.708 Y135.543 E48.4936
G1 X122.026 Y135.082 E48.51968
G1 X122.226 Y134.557 E48.54584
G1 X122.292 Y134 E48.57196
G1 X122.226 Y133.443 E48.59808
G1 X122.026 Y132.918 E48.62424
G1 X121.708 Y132.457 E48.65031
G1 X121.287 Y132.085 E48.67647
G1 X120.792 Y131.825 E48.70251
G1 X120.246 Y131.69 E48.7287
G1 X119.686 Y131.69 E48.75477
G1 X119.142 Y131.825 E48.78087
G1 X118.644 Y132.085 E48.80703
G1 X118.225 Y132.457 E48.83312
G1 X117.907 Y132.918 E48.8592
G1 X117.707 Y133.443 E48.88536
G1 X117.64 Y134 E48.91148
